!!!!SEGMENT: pl-cz--iii-574--007_rodowski-aleksander--missa-in-c-benedictus.krn
!!!cenid: 18xx:1025
!!!COM: Rodowski, Aleksander
!!!COM-rismid: pe30009627
!!!CDT: <1790->1810
!!!CNT: Polish
!!!OPR: Missa in C
!!!OTL: Benedictus
!!!OMV: 007
!!!PDT: 1801
!!!AGN: Sacred; Mass
!!!SMS-siglum: PL-CZ
!!!SMS-shelfmark: III-574
!!!SMS-shelfwork: 001-007 M
!!!SMS-variant:
!!!SMS-altvar:
!!!NIFC-rismid: 300001098
!!!URL-scan: http://repozytorium.nifc.pl/skany/pl-cz-nut--iii-574
!!!ONB-nifc: UWAGA: części Mszy: Kyrie, Christe, Gloria, Credo, Sanctus, Pleni, Benedictus, Agnus Dei
!!!key: C
**kern	**fba	**dynam	**kern	**dynam	**kern	**dynam	**kern	**text	**kern	**kern	**kern	**kern	**kern	**kern	**kern	**kern	**kern	**kern	**kern
*	*	*	*group4	*	*group4	*	*group3	*	*group3	*group3	*	*group2	*group2	*group2	*group2	*group1	*group1	*group1	*group1
*part15	*part15	*part15	*part14	*part14	*part13	*part13	*part12	*part12	*part11	*part10	*part9	*part8	*part7	*part6	*part5	*part4	*part3	*part2	*part1
*staff15	*	*	*staff14	*	*staff13	*	*staff12	*staff12	*staff11	*staff10	*staff9	*staff8	*staff7	*staff6	*staff5	*staff4	*staff3	*staff2	*staff1
*I"Organo.	*	*	*I"Violino Secondo.	*	*I"Violino Primo.	*	*I"Basſo.	*	*I"Alto.	*I"Canto.	*I"Tympano in C.	*I"Clarino Secondo in C.	*I"Clarino Primo. in C.	*I"Cornu. Secondo.	*I"Cornu. Primo. ex. C.	*I"Clarinetto Secondo. in B.	*I"Clarinetto Primo. in B.	*I"Oboe Secondo.	*I"Oboe Primo.
*I'org	*	*	*I'vl 2	*	*I'vl 1	*	*I'B	*	*I'A	*I'S	*I'timp	*I'clno 2	*I'clno 1	*I'cor 2	*I'cor 1	*I'cl 2 in B	*I'cl 1 in B	*I'ob 2	*I'ob 1
*Iorgan	*	*	*Ivioln	*	*Ivioln	*	*Ibass	*	*Ialto	*Isoprn	*Itimpa	*Iclrno	*Itromp	*Icor	*Icor	*Iclars	*Iclars	*Ioboe	*Ioboe
*ICklav	*	*	*ICstr	*	*ICstr	*	*ICvox	*	*ICvox	*ICvox	*ICidio	*ICbras	*ICbras	*ICbras	*ICbras	*ICww	*ICww	*ICww	*ICww
*IGcont	*	*	*	*	*	*	*	*	*	*	*	*	*	*	*	*	*	*	*
*clefF4	*	*	*clefG2	*	*clefG2	*	*clefF4	*	*clefC3	*clefC1	*clefF4	*clefG2	*clefG2	*clefG2	*clefG2	*clefG2	*clefG2	*clefG2	*clefG2
*	*	*	*	*	*	*	*	*	*	*	*	*	*	*ITrd0c0	*ITrd0c0	*ITrd1c2	*ITrd1c2	*	*
*k[]	*	*	*k[]	*	*k[]	*	*k[]	*	*k[]	*k[]	*k[]	*k[]	*k[]	*k[]	*k[]	*k[]	*k[]	*k[]	*k[]
*C:	*	*	*C:	*	*C:	*	*C:	*	*C:	*C:	*C:	*C:	*C:	*C:	*C:	*C:	*C:	*C:	*C:
*M3/4	*	*	*M3/4	*	*M3/4	*	*M3/4	*	*M3/4	*M3/4	*M3/4	*M3/4	*M3/4	*M3/4	*M3/4	*M3/4	*M3/4	*M3/4	*M3/4
=1	=1	=1	=1	=1	=1	=1	=1	=1	=1	=1	=1	=1	=1	=1	=1	=1	=1	=1	=1
!LO:TX:t=P:problem:mixed beam	!	!	!	!	!LO:TX:a:i:t=Solo.	!	!	!	!	!	!	!	!	!LO:TX:a:t=7.	!LO:TX:b:t=7.	!LO:TX:a:t=7.	!LO:TX:a:t=7.	!LO:TX:b:t=7.	!LO:TX:b:t=7
!LO:TX:a:i:t=Adagio.	!	!LO:DY:b:t=piano	!LO:TX:a:i:rj:t=Adagio.	!	!LO:TX:a:i:t=Adagio.	!	!LO:TX:a:i:t=Andante.	!	!LO:TX:a:i:t=Benedictus Tacet.	!LO:TX:a:i:t=Benedictus Tacet.	!LO:TX:a:i:t=Benedictus Tacet.	!LO:TX:a:i:t=Benedictus Tacet.	!LO:TX:a:i:t=Benedict(us) \nTacet.	!	!LO:TX:a:i:t=adagio.	!LO:TX:a:i:rj:t=Adagio.	!LO:TX:a:i:rj:t=Adagio.	!LO:TX:a:i:t=Adagio.	!LO:TX:a:i:t=Adagio.
8C/L	5 3	p	16c/LL	.	16gg\LL	.	0.r	.	2.ryy	2.ryy	2.ryy	2.ryy	2.ryy	0.r	0.r	0.r	0.r	0.r	0.r
.	.	.	16e/	.	16ee\	.	.	.	.	.	.	.	.	.	.	.	.	.	.
8c\J	.	.	16g/	.	16dd\	.	.	.	.	.	.	.	.	.	.	.	.	.	.
.	.	.	16e/JJ	.	16cc\JJ	.	.	.	.	.	.	.	.	.	.	.	.	.	.
*2\right	*	*	*	*	*	*	*	*	*	*	*	*	*	*	*	*	*	*	*
*tremolo	*	*	*	*	*	*	*	*	*	*	*	*	*	*	*	*	*	*	*
8c\L	6 4	.	16c/LL	.	4cc\	.	.	.	.	.	.	.	.	.	.	.	.	.	.
.	.	.	16e/	.	.	.	.	.	.	.	.	.	.	.	.	.	.	.	.
8c\	.	.	16g/	.	.	.	.	.	.	.	.	.	.	.	.	.	.	.	.
.	.	.	16e/JJ	.	.	.	.	.	.	.	.	.	.	.	.	.	.	.	.
8c\	.	.	16c/LL	.	16cc\LL	.	.	.	.	.	.	.	.	.	.	.	.	.	.
.	.	.	16f/	.	16ccc\	.	.	.	.	.	.	.	.	.	.	.	.	.	.
8c\J	.	.	16a/	.	16bb\	.	.	.	.	.	.	.	.	.	.	.	.	.	.
.	.	.	16f/JJ	.	16aa\JJ	.	.	.	.	.	.	.	.	.	.	.	.	.	.
*Xtremolo	*	*	*	*	*	*	*	*	*	*	*	*	*	*	*	*	*	*	*
=2	=2	=2	=2	=2	=2	=2	=2	=2	=2	=2	=2	=2	=2	=2	=2	=2	=2	=2	=2
!LO:TX:t=P:problem:mixed beam	!	!	!	!	!	!	!	!	!	!	!	!	!	!	!	!	!	!	!
8C/L	6 4	.	16c/LL	.	16aa\LL	.	.	.	2.ryy	2.ryy	2.ryy	2.ryy	2.ryy	.	.	.	.	.	.
.	.	.	16f/	.	16bb\	.	.	.	.	.	.	.	.	.	.	.	.	.	.
8c\J	.	.	16a/	.	16ccc\	.	.	.	.	.	.	.	.	.	.	.	.	.	.
.	.	.	16f/JJ	.	16aa\JJ	.	.	.	.	.	.	.	.	.	.	.	.	.	.
*tremolo	*	*	*	*	*	*	*	*	*	*	*	*	*	*	*	*	*	*	*
8c\L	5 3	.	16c/LL	.	4gg\	.	.	.	.	.	.	.	.	.	.	.	.	.	.
.	.	.	16e/	.	.	.	.	.	.	.	.	.	.	.	.	.	.	.	.
8c\	.	.	16g/	.	.	.	.	.	.	.	.	.	.	.	.	.	.	.	.
.	.	.	16e/JJ	.	.	.	.	.	.	.	.	.	.	.	.	.	.	.	.
8c\	.	.	16c/LL	.	16gg\LL	.	.	.	.	.	.	.	.	.	.	.	.	.	.
.	.	.	16e/	.	16ccc\	.	.	.	.	.	.	.	.	.	.	.	.	.	.
8c\J	.	.	16g/	.	16eee\	.	.	.	.	.	.	.	.	.	.	.	.	.	.
.	.	.	16e/JJ	.	16ggg\JJ	.	.	.	.	.	.	.	.	.	.	.	.	.	.
*Xtremolo	*	*	*	*	*	*	*	*	*	*	*	*	*	*	*	*	*	*	*
=3	=3	=3	=3	=3	=3	=3	=3	=3	=3	=3	=3	=3	=3	=3	=3	=3	=3	=3	=3
!LO:TX:t=P:problem:mixed beam	!	!	!	!	!	!	!	!	!	!	!	!	!	!	!	!	!	!	!
8C/L	6 4	.	16c/LL	.	16ggg\LL	.	.	.	2.ryy	2.ryy	2.ryy	2.ryy	2.ryy	.	.	.	.	.	.
.	.	.	16f/	.	16aa\JJ	.	.	.	.	.	.	.	.	.	.	.	.	.	.
8c\J	.	.	16a/	.	4aa\	.	.	.	.	.	.	.	.	.	.	.	.	.	.
.	.	.	16f/JJ	.	.	.	.	.	.	.	.	.	.	.	.	.	.	.	.
*tremolo	*	*	*rep	*	*	*	*	*	*	*	*	*	*	*	*	*	*	*	*
8c\L	.	.	16c/LL	.	.	.	.	.	.	.	.	.	.	.	.	.	.	.	.
.	.	.	16f/	.	.	.	.	.	.	.	.	.	.	.	.	.	.	.	.
8c\	.	.	16a/	.	16bb\LL	.	.	.	.	.	.	.	.	.	.	.	.	.	.
.	.	.	16f/JJ	.	16ccc\JJ	.	.	.	.	.	.	.	.	.	.	.	.	.	.
*	*	*	*Xrep	*	*	*	*	*	*	*	*	*	*	*	*	*	*	*	*
*	*	*	*rep	*	*	*	*	*	*	*	*	*	*	*	*	*	*	*	*
8c\	.	.	16c/LL	.	16ddd\LL	.	.	.	.	.	.	.	.	.	.	.	.	.	.
.	.	.	16f/	.	16eee\	.	.	.	.	.	.	.	.	.	.	.	.	.	.
8c\J	.	.	16a/	.	16fff\	.	.	.	.	.	.	.	.	.	.	.	.	.	.
.	.	.	16f/JJ	.	16aa\JJ	.	.	.	.	.	.	.	.	.	.	.	.	.	.
*	*	*	*Xrep	*	*	*	*	*	*	*	*	*	*	*	*	*	*	*	*
!	!	!	!LO:LB:g=original	!	!	!	!	!	!	!	!	!	!	!	!	!	!	!	!
=4	=4	=4	=4	=4	=4	=4	=4	=4	=4	=4	=4	=4	=4	=4	=4	=4	=4	=4	=4
8C/L	5 3	.	16c/LL	.	16ff#X\LL	.	.	.	2.ryy	2.ryy	2.ryy	2.ryy	2.ryy	.	.	.	.	.	.
.	.	.	16e/	.	16gg\	.	.	.	.	.	.	.	.	.	.	.	.	.	.
8C/	.	.	16g/	.	16aa\	.	.	.	.	.	.	.	.	.	.	.	.	.	.
.	.	.	16e/JJ	.	16gg\JJ	.	.	.	.	.	.	.	.	.	.	.	.	.	.
*	*	*	*rep	*	*	*	*	*	*	*	*	*	*	*	*	*	*	*	*
8C/	.	.	16c/LL	.	4gg\	.	.	.	.	.	.	.	.	.	.	.	.	.	.
.	.	.	16e/	.	.	.	.	.	.	.	.	.	.	.	.	.	.	.	.
8C/J	.	.	16g/	.	.	.	.	.	.	.	.	.	.	.	.	.	.	.	.
.	.	.	16e/JJ	.	.	.	.	.	.	.	.	.	.	.	.	.	.	.	.
*Xtremolo	*	*	*Xrep	*	*	*	*	*	*	*	*	*	*	*	*	*	*	*	*
*	*	*	*rep	*	*	*	*	*	*	*	*	*	*	*	*	*	*	*	*
8E\L	6	.	16c/LL	.	16gg\LL	.	.	.	.	.	.	.	.	.	.	.	.	.	.
.	.	.	16e/	.	16eee\	.	.	.	.	.	.	.	.	.	.	.	.	.	.
8E\J	.	.	16g/	.	16ddd\	.	.	.	.	.	.	.	.	.	.	.	.	.	.
.	.	.	16e/JJ	.	16ccc\JJ	.	.	.	.	.	.	.	.	.	.	.	.	.	.
*	*	*	*Xrep	*	*	*	*	*	*	*	*	*	*	*	*	*	*	*	*
=5	=5	=5	=5	=5	=5	=5	=5	=5	=5	=5	=5	=5	=5	=5	=5	=5	=5	=5	=5
*tremolo	*	*	*	*	*	*	*	*	*	*	*	*	*	*	*	*	*	*	*
8D/L	5 3	.	16d/LL	.	16ccc\LL	.	0.r	.	2.ryy	2.ryy	2.ryy	2.ryy	2.ryy	1.r	1.r	1.r	1.r	1.r	1.r
.	.	.	16f/	.	16bb\	.	.	.	.	.	.	.	.	.	.	.	.	.	.
8D/	.	.	16g/	.	16ddd\	.	.	.	.	.	.	.	.	.	.	.	.	.	.
.	.	.	16f/JJ	.	16ccc\JJ	.	.	.	.	.	.	.	.	.	.	.	.	.	.
*	*	*	*rep	*	*	*	*	*	*	*	*	*	*	*	*	*	*	*	*
8D/	.	.	16d/LL	.	4bb\	.	.	.	.	.	.	.	.	.	.	.	.	.	.
.	.	.	16f/	.	.	.	.	.	.	.	.	.	.	.	.	.	.	.	.
8D/J	.	.	16g/	.	.	.	.	.	.	.	.	.	.	.	.	.	.	.	.
.	.	.	16f/JJ	.	.	.	.	.	.	.	.	.	.	.	.	.	.	.	.
*Xtremolo	*	*	*Xrep	*	*	*	*	*	*	*	*	*	*	*	*	*	*	*	*
*	*	*	*rep	*	*	*	*	*	*	*	*	*	*	*	*	*	*	*	*
8GG/L	7 5	.	16d/LL	.	16gg\LL	.	.	.	.	.	.	.	.	.	.	.	.	.	.
.	.	.	16f/	.	16fff\	.	.	.	.	.	.	.	.	.	.	.	.	.	.
8GG/J	.	.	16g/	.	16eee\	.	.	.	.	.	.	.	.	.	.	.	.	.	.
.	.	.	16f/JJ	.	16ddd\JJ	.	.	.	.	.	.	.	.	.	.	.	.	.	.
*	*	*	*Xrep	*	*	*	*	*	*	*	*	*	*	*	*	*	*	*	*
!	!	!	!	!	!LO:LB:g=original	!	!	!	!	!	!	!	!	!	!	!	!	!	!
=6	=6	=6	=6	=6	=6	=6	=6	=6	=6	=6	=6	=6	=6	=6	=6	=6	=6	=6	=6
*tremolo	*	*	*	*	*	*	*	*	*	*	*	*	*	*	*	*	*	*	*
8C/L	.	.	16c/LL	.	16ddd\LL	.	.	.	2.ryy	2.ryy	2.ryy	2.ryy	2.ryy	.	.	.	.	.	.
.	.	.	16e/	.	16ccc\	.	.	.	.	.	.	.	.	.	.	.	.	.	.
8C/	.	.	16g/	.	16eee\	.	.	.	.	.	.	.	.	.	.	.	.	.	.
.	.	.	16e/JJ	.	16ddd\JJ	.	.	.	.	.	.	.	.	.	.	.	.	.	.
8C/	.	.	16c/LL	.	4ccc\	.	.	.	.	.	.	.	.	.	.	.	.	.	.
.	.	.	16e/	.	.	.	.	.	.	.	.	.	.	.	.	.	.	.	.
8C/J	.	.	16g/	.	.	.	.	.	.	.	.	.	.	.	.	.	.	.	.
.	.	.	16e/JJ	.	.	.	.	.	.	.	.	.	.	.	.	.	.	.	.
*Xtremolo	*	*	*	*	*	*	*	*	*	*	*	*	*	*	*	*	*	*	*
8E\L	.	.	16e/LL	.	16gg\LL	.	.	.	.	.	.	.	.	.	.	.	.	.	.
.	.	.	16g/	.	16ggg\	.	.	.	.	.	.	.	.	.	.	.	.	.	.
8E\J	.	.	16cc/	.	16fff\	.	.	.	.	.	.	.	.	.	.	.	.	.	.
.	.	.	16g/JJ	.	16eee\JJ	.	.	.	.	.	.	.	.	.	.	.	.	.	.
!LO:LB:g=original	!	!	!	!	!	!	!	!	!	!	!	!	!	!	!	!	!	!	!
=7	=7	=7	=7	=7	=7	=7	=7	=7	=7	=7	=7	=7	=7	=7	=7	=7	=7	=7	=7
!LO:TX:t=P:problem:mixed beam	!	!	!	!	!	!	!	!	!	!	!	!	!	!	!	!	!	!	!
8F\L	.	.	16f/LL	.	16eee\LL	.	.	.	2.ryy	2.ryy	2.ryy	2.ryy	2.ryy	2.r	2.r	2.r	2.r	2.r	2.r
.	.	.	16a/	.	16fff\	.	.	.	.	.	.	.	.	.	.	.	.	.	.
8F\	.	.	16dd/	.	16aa\	.	.	.	.	.	.	.	.	.	.	.	.	.	.
.	.	.	16a/JJ	.	16ddd\JJ	.	.	.	.	.	.	.	.	.	.	.	.	.	.
8G\	6 4	.	16g/LL	.	8.ccc\L	.	.	.	.	.	.	.	.	.	.	.	.	.	.
.	.	.	16cc/	.	.	.	.	.	.	.	.	.	.	.	.	.	.	.	.
8G\	.	.	16ee/	.	.	.	.	.	.	.	.	.	.	.	.	.	.	.	.
.	.	.	16cc/JJ	.	16ddd\Jk	.	.	.	.	.	.	.	.	.	.	.	.	.	.
8GG/	5 3	.	16g/LL	.	4dddTT\	.	.	.	.	.	.	.	.	.	.	.	.	.	.
.	.	.	16b/	.	.	.	.	.	.	.	.	.	.	.	.	.	.	.	.
8GG/J	.	.	16dd/	.	.	.	.	.	.	.	.	.	.	.	.	.	.	.	.
.	.	.	16b/JJ	.	.	.	.	.	.	.	.	.	.	.	.	.	.	.	.
=8	=8	=8	=8	=8	=8	=8	=8	=8	=8	=8	=8	=8	=8	=8	=8	=8	=8	=8	=8
!	!	!	!	!	!	!	!	!	!	!	!	!	!	!LO:TX:a:i:t=Adagio.	!	!LO:TX:a:i:t=Solo	!LO:TX:a:i:t=Solo	!	!
4C/	.	.	4cc\	.	4ccc\	.	.	.	2.ryy	2.ryy	2.ryy	2.ryy	2.ryy	4e/	4cc\	8r	8r	8r	8r
!	!	!	!	!	!	!	!	!	!	!	!	!	!	!	!	!	!	!LO:TX:a:i:t=Solo	!LO:TX:a:i:t=Solo
.	.	.	.	.	.	.	.	.	.	.	.	.	.	.	.	16cc\LL	16ee\LL	16cc\LL	16ee\LL
.	.	.	.	.	.	.	.	.	.	.	.	.	.	.	.	16dd\JJ	16ff\JJ	16dd\JJ	16ff\JJ
4r	.	.	4r	.	4r	.	.	.	.	.	.	.	.	4r	4r	8ee\L	8gg\L	8ee\L	8gg\L
.	.	.	.	.	.	.	.	.	.	.	.	.	.	.	.	8aa\	8ccc\	8aa\	8ccc\
4GG/	.	.	4r	.	4r	.	.	.	.	.	.	.	.	4g/	4dd\	8gg\	8bb\	8gg\	8bb\
.	.	.	.	.	.	.	.	.	.	.	.	.	.	.	.	8ff\J	8aa\J	8ff\J	8aa\J
=9	=9	=9	=9	=9	=9	=9	=9	=9	=9	=9	=9	=9	=9	=9	=9	=9	=9	=9	=9
4C/	.	.	4e/	.	4cc\	.	1.r	.	2.ryy	2.ryy	2.ryy	2.ryy	2.ryy	4cc\	4ee\	8ee\L	8gg\L	8ee\L|	8gg\L
.	.	.	.	.	.	.	.	.	.	.	.	.	.	.	.	16cc\L	16ee\L	(16cc\L	16ee\L
.	.	.	.	.	.	.	.	.	.	.	.	.	.	.	.	16dd\JJ	16ff\JJ	16dd\JJ)	16ff\JJ
4r	.	.	4r	.	4r	.	.	.	.	.	.	.	.	4r	4r	8ee\L	8gg\L	8ee\L	8gg\L
.	.	.	.	.	.	.	.	.	.	.	.	.	.	.	.	8ff\	8aa\	8ff\	8aa\
4GG/	.	.	4g/	.	4b 4d/	.	.	.	.	.	.	.	.	4g/	4dd\	8ee\	8gg\	8ee\	8gg\
.	.	.	.	.	.	.	.	.	.	.	.	.	.	.	.	8dd\J	8ff\J	8dd\J	8ff\J
!	!	!	!	!	!	!	!	!	!	!	!	!	!	!	!	!	!LO:LB:g=original	!	!
=10	=10	=10	=10	=10	=10	=10	=10	=10	=10	=10	=10	=10	=10	=10	=10	=10	=10	=10	=10
4GG/	.	.	4f/	.	4b 4d/	.	.	.	2.ryy	2.ryy	2.ryy	2.ryy	2.ryy	4dd\	4dd\	4dd\	4ff\	4dd\	4ff\
!LO:TX:t=P:problem:mixed beam	!	!	!LO:TX:a:t=Fine.	!	!	!	!	!	!	!	!	!	!	!	!	!	!	!	!
16C/LL	.	.	4e/	.	4cc 4e/	.	.	.	.	.	.	.	.	16cc\LL	16cc\LL	8cc\L	8ee\L	8cc\L	8ee\L
16c\	.	.	.	.	.	.	.	.	.	.	.	.	.	16cc\	16cc\	.	.	.	.
16G\	.	.	.	.	.	.	.	.	.	.	.	.	.	16g\	16g\	8ee\	8gg\	8ee\	8gg\
16E\JJ	.	.	.	.	.	.	.	.	.	.	.	.	.	16e\JJ	16e\JJ	.	.	.	.
!	!	!	!	!	!LO:TX:t=P:problem:pdwójna kreska taktowa	!	!	!	!	!	!	!	!	!	!	!	!	!	!
4C/	.	.	4r	.	4r	.	.	.	.	.	.	.	.	4c/	4c/	8cc\J	8ee\J	8cc\J	8ee\J
.	.	.	.	.	.	.	.	.	.	.	.	.	.	.	.	8r	8r	8r	8r
!	!	!	!LO:LB:g=original	!	!	!	!	!	!	!	!	!	!	!	!	!	!	!LO:LB:g=original	!LO:LB:g=original
=11	=11	=11	=11;	=11	=11;	=11	=11	=11	=11	=11	=11	=11	=11	=11	=11	=11	=11	=11	=11
!LO:TX:t=P:problem:mixed beam	!	!	!	!LO:DY:b:t=pia	!	!LO:DY:b:t=piano	!LO:TX:a:i:t=Solo	!	!	!	!	!	!	!LO:TX:a:t=5.	!LO:TX:a:t=5.	!LO:TX:a:t=5.	!LO:TX:a:t=5	!LO:TX:a:t=5	!LO:TX:a:t=5
8C/L	5 3	.	16c/LL	p	(16e/LL	p	16G\LL	Be-	2.ryy	2.ryy	2.ryy	2.ryy	2.ryy	0.r	0.r	0.r	0.r	0.r	0.r
.	.	.	16d/	.	16f/)	.	16E\	.	.	.	.	.	.	.	.	.	.	.	.
8c\J	.	.	16e/	.	16g/|	.	16D\	.	.	.	.	.	.	.	.	.	.	.	.
.	.	.	16e/JJ	.	16g/JJ|	.	16C\JJ	.	.	.	.	.	.	.	.	.	.	.	.
!LO:TX:t=P:problem:\left	!	!	!	!	!	!	!	!	!	!	!	!	!	!	!	!	!	!	!
*tremolo	*	*	*	*	*	*	*	*	*	*	*	*	*	*	*	*	*	*	*
8c\L	6_ 4_	.	16c/LL	.	(16e/LL	.	4C\	.	.	.	.	.	.	.	.	.	.	.	.
.	.	.	16d/	.	16f/)	.	.	.	.	.	.	.	.	.	.	.	.	.	.
!	!	!	!	!	!LO:TX:b:t=g	!	!	!	!	!	!	!	!	!	!	!	!	!	!
8c\	.	.	16e/	.	16g/|	.	.	.	.	.	.	.	.	.	.	.	.	.	.
.	.	.	16e/JJ	.	16g/JJ|	.	.	.	.	.	.	.	.	.	.	.	.	.	.
8c\	.	.	16c/LL	.	(16f/LL	.	16C\LL	.	.	.	.	.	.	.	.	.	.	.	.
.	.	.	16e/	.	16g/)	.	16c\	.	.	.	.	.	.	.	.	.	.	.	.
8c\J	.	.	16f/	.	16a/|	.	16B\	-ne-	.	.	.	.	.	.	.	.	.	.	.
.	.	.	16f/JJ	.	16a/JJ|	.	16A\JJ	.	.	.	.	.	.	.	.	.	.	.	.
*Xtremolo	*	*	*	*	*	*	*	*	*	*	*	*	*	*	*	*	*	*	*
=12	=12	=12	=12	=12	=12	=12	=12	=12	=12	=12	=12	=12	=12	=12	=12	=12	=12	=12	=12
8C/L	.	.	16c/LL	.	(16f/LL	.	16A\LL	-dic-	2.ryy	2.ryy	2.ryy	2.ryy	2.ryy	.	.	.	.	.	.
.	.	.	16e/	.	16g/)	.	16B\	.	.	.	.	.	.	.	.	.	.	.	.
8c\J	.	.	16f/	.	16a/|	.	16c\	.	.	.	.	.	.	.	.	.	.	.	.
.	.	.	16f/JJ	.	16a/JJ|	.	16A\JJ	.	.	.	.	.	.	.	.	.	.	.	.
*tremolo	*	*	*	*	*	*	*	*	*	*	*	*	*	*	*	*	*	*	*
8c\L	5 3	.	16c/LL	.	(16e/LL	.	4G\	-tus	.	.	.	.	.	.	.	.	.	.	.
.	.	.	16d/	.	16f/)	.	.	.	.	.	.	.	.	.	.	.	.	.	.
8c\	.	.	16e/	.	16g/|	.	.	.	.	.	.	.	.	.	.	.	.	.	.
.	.	.	16e/JJ	.	16g/JJ|	.	.	.	.	.	.	.	.	.	.	.	.	.	.
8c\	.	.	16c/LL	.	(16e/LL	.	16F#X\LL	qui	.	.	.	.	.	.	.	.	.	.	.
.	.	.	16d/	.	16f/)	.	16G\	.	.	.	.	.	.	.	.	.	.	.	.
8c\J	.	.	16e/	.	16g/|	.	16c\	.	.	.	.	.	.	.	.	.	.	.	.
.	.	.	16e/JJ	.	16g/JJ|	.	16e\JJ	.	.	.	.	.	.	.	.	.	.	.	.
!	!	!	!	!	!LO:LB:g=original	!	!LO:LB:g=original	!	!	!	!	!	!	!	!	!	!	!	!
=13	=13	=13	=13	=13	=13	=13	=13	=13	=13	=13	=13	=13	=13	=13	=13	=13	=13	=13	=13
8G\L	.	.	16B/LL	.	16d/LL	.	4d\	ve-	2.ryy	2.ryy	2.ryy	2.ryy	2.ryy	.	.	.	.	.	.
.	.	.	16c/	.	16e/	.	.	.	.	.	.	.	.	.	.	.	.	.	.
8G\	.	.	16d/	.	16f/	.	.	.	.	.	.	.	.	.	.	.	.	.	.
.	.	.	16d/JJ	.	16f/JJ	.	.	.	.	.	.	.	.	.	.	.	.	.	.
8G\	.	.	16B/LL	.	16d/LL	.	16c\LL	.	.	.	.	.	.	.	.	.	.	.	.
.	.	.	16c/	.	16e/	.	16B\	.	.	.	.	.	.	.	.	.	.	.	.
8G\	.	.	16d/	.	16f/	.	16A\	.	.	.	.	.	.	.	.	.	.	.	.
.	.	.	16d/JJ	.	16f/JJ	.	16G\JJ	.	.	.	.	.	.	.	.	.	.	.	.
8G\	.	.	16d/LL	.	16b\LL	.	16A\LL	.	.	.	.	.	.	.	.	.	.	.	.
.	.	.	16e/	.	16cc\	.	16c\	.	.	.	.	.	.	.	.	.	.	.	.
8G\J	.	.	16f/	.	16dd\	.	16B\	.	.	.	.	.	.	.	.	.	.	.	.
.	.	.	16f/JJ	.	16dd\JJ	.	16d\JJ	.	.	.	.	.	.	.	.	.	.	.	.
*Xtremolo	*	*	*	*	*	*	*	*	*	*	*	*	*	*	*	*	*	*	*
=14	=14	=14	=14	=14	=14	=14	=14	=14	=14	=14	=14	=14	=14	=14	=14	=14	=14	=14	=14
!	!	!	!LO:TX:t=P:problem:mixed beam	!	!	!	!	!	!	!	!	!	!	!	!	!	!	!	!
4C/	.	.	8e/L	.	8cc\L	.	4c\	-nit.	2.ryy	2.ryy	2.ryy	2.ryy	2.ryy	.	.	.	.	.	.
.	.	.	16cc\L	.	16ee\L	.	.	.	.	.	.	.	.	.	.	.	.	.	.
.	.	.	16dd\JJ	.	16ff\JJ	.	.	.	.	.	.	.	.	.	.	.	.	.	.
4c\	.	.	8ee\L	.	8gg\L	.	4r	.	.	.	.	.	.	.	.	.	.	.	.
.	.	.	8ee\J	.	8gg\J	.	.	.	.	.	.	.	.	.	.	.	.	.	.
4r	.	.	16ff\LL	.	16aa\LL	.	4r	.	.	.	.	.	.	.	.	.	.	.	.
.	.	.	16ee\	.	16gg\	.	.	.	.	.	.	.	.	.	.	.	.	.	.
.	.	.	16dd\	.	16ff\	.	.	.	.	.	.	.	.	.	.	.	.	.	.
.	.	.	16cc\JJ	.	16ee\JJ	.	.	.	.	.	.	.	.	.	.	.	.	.	.
=15	=15	=15	=15	=15	=15	=15	=15	=15	=15	=15	=15	=15	=15	=15	=15	=15	=15	=15	=15
!LO:TX:t=P:problem:mixed beam	!	!	!	!	!	!	!	!	!	!	!	!	!	!	!	!	!	!	!
8F\L	.	.	16d/LL	.	16dd/LL	.	4d\	qui	2.ryy	2.ryy	2.ryy	2.ryy	2.ryy	2.r	2.r	2.r	2.r	2.r	2.r
.	.	.	16f/	.	16b/	.	.	.	.	.	.	.	.	.	.	.	.	.	.
8F\	.	.	16g/	.	16g/	.	.	.	.	.	.	.	.	.	.	.	.	.	.
.	.	.	16f/JJ	.	16f/JJ	.	.	.	.	.	.	.	.	.	.	.	.	.	.
8G\	.	.	16B/LL	.	16d/LL	.	16c\LL	ve-	.	.	.	.	.	.	.	.	.	.	.
.	.	.	16c/	.	16e/	.	16B\	.	.	.	.	.	.	.	.	.	.	.	.
8G\	.	.	16d/	.	16f/	.	16A\	.	.	.	.	.	.	.	.	.	.	.	.
.	.	.	16d/JJ	.	16f/JJ	.	16G\JJ	.	.	.	.	.	.	.	.	.	.	.	.
8GG/	.	.	16B/LL	.	16d/LL	.	16A\LL	.	.	.	.	.	.	.	.	.	.	.	.
.	.	.	16c/	.	16e/	.	16c\	.	.	.	.	.	.	.	.	.	.	.	.
8GG/J	.	.	16d/	.	16f/	.	16B\	.	.	.	.	.	.	.	.	.	.	.	.
.	.	.	16d/JJ	.	16f/JJ	.	16d\JJ	.	.	.	.	.	.	.	.	.	.	.	.
!LO:LB:g=original	!	!	!LO:LB:g=original	!	!	!	!	!	!	!	!	!	!	!	!	!LO:LB:g=original	!	!	!
=16	=16	=16	=16	=16	=16	=16	=16	=16	=16	=16	=16	=16	=16	=16	=16	=16	=16	=16	=16
4C/	.	.	4e 4G/	.	4e 4G/	.	4c\	.	2.ryy	2.ryy	2.ryy	2.ryy	2.ryy	4e/	4cc\	8r	8r	8r	8r
.	.	.	.	.	.	.	.	.	.	.	.	.	.	.	.	16cc\LL	16ee\LL	16cc\LL	16ee\LL
.	.	.	.	.	.	.	.	.	.	.	.	.	.	.	.	16dd\JJ	16ff\JJ	16dd\JJ	16ff\JJ
4r	.	.	4r	.	4r	.	4C/	-nit,	.	.	.	.	.	4r	4r	8ee\L	8gg\L	8ee\L	8gg\L
.	.	.	.	.	.	.	.	.	.	.	.	.	.	.	.	8aa\	8ccc\	8aa\	8ccc\
4GG/	.	.	4f 4G/	.	4b 4d/	.	4r	.	.	.	.	.	.	4g/	4dd\	8gg\	8bb\	8gg\	8bb\
.	.	.	.	.	.	.	.	.	.	.	.	.	.	.	.	8ff\J	8aa\J	8ff\J	8aa\J
!	!	!	!	!	!	!	!	!	!	!	!	!	!	!LO:LB:g=original	!LO:LB:g=original	!	!	!	!
=17	=17	=17	=17	=17	=17	=17	=17	=17	=17	=17	=17	=17	=17	=17	=17	=17	=17	=17	=17
!	!	!	!	!	!	!	!LO:TX:a:t=2.	!	!	!	!	!	!	!	!	!	!	!	!
4C/	.	.	4e 4G/	.	4cc 4e/	.	1.r	.	2.ryy	2.ryy	2.ryy	2.ryy	2.ryy	4cc\	4ee\	8ee\L	8gg\L	8ee\L	8gg\L
.	.	.	.	.	.	.	.	.	.	.	.	.	.	.	.	16cc\L	16ee\L	16cc\L	16ee\L
.	.	.	.	.	.	.	.	.	.	.	.	.	.	.	.	16dd\JJ	16ff\JJ	16dd\JJ	16ff\JJ
4r	.	.	4r	.	4r	.	.	.	.	.	.	.	.	4r	4r	8ee\L	8gg\L	8ee\L	8gg\L
.	.	.	.	.	.	.	.	.	.	.	.	.	.	.	.	8ff\	8aa\	8ff\	8aa\
4GG/	.	.	4f 4G/	.	4b 4d/	.	.	.	.	.	.	.	.	4g/	4dd\	8ee\	8gg\	8ee\	8gg\
.	.	.	.	.	.	.	.	.	.	.	.	.	.	.	.	8dd\J	8ff\J	8dd\J	8ff\J
=18	=18	=18	=18	=18	=18	=18	=18	=18	=18	=18	=18	=18	=18	=18	=18	=18	=18	=18	=18
4GG/	.	.	4f 4G/	.	4b 4d/	.	.	.	2.ryy	2.ryy	2.ryy	2.ryy	2.ryy	4dd\	4dd\	4dd\	4ff\	4dd\	4ff\
16C/LL	.	.	4e 4G/	.	4cc 4e/	.	.	.	.	.	.	.	.	16cc\LL	16cc\LL	8cc\L	8ee\L	8cc\L	8ee\L
16C/	.	.	.	.	.	.	.	.	.	.	.	.	.	16cc\	16cc\	.	.	.	.
16GG/	.	.	.	.	.	.	.	.	.	.	.	.	.	16g\	16g\	8ee\	8gg\	8ee\	8gg\
16EE/JJ	.	.	.	.	.	.	.	.	.	.	.	.	.	16e\JJ	16e\JJ	.	.	.	.
4CC/	.	.	4r	.	4r	.	.	.	.	.	.	.	.	4c/	4c/	8cc\J	8ee\J	8cc\J	8ee\J
.	.	.	.	.	.	.	.	.	.	.	.	.	.	.	.	8r	8r	8r	8r
=19	=19	=19	=19	=19	=19	=19	=19	=19	=19	=19	=19	=19	=19	=19	=19	=19	=19	=19	=19
!	!	!	!	!	!	!	!	!	!	!	!	!	!	!LO:TX:a:t=25.	!LO:TX:a:t=25.	!LO:TX:a:t=25.	!LO:TX:a:t=25.	!LO:TX:a:t=25.	!LO:TX:a:t=25.
8c\	.	.	16r	.	16r	.	16C\LL	Be-	2.ryy	2.ryy	2.ryy	2.ryy	2.ryy	0.r	0.r	0.r	0.r	0.r	0.r
.	.	.	16e/LL	.	16g/LL	.	16E\	.	.	.	.	.	.	.	.	.	.	.	.
8r	.	.	16e/	.	16g/	.	16G\	.	.	.	.	.	.	.	.	.	.	.	.
.	.	.	16e/JJ	.	16g/JJ	.	16c\JJ	.	.	.	.	.	.	.	.	.	.	.	.
8c\	.	.	16r	.	16r	.	4.e\	.	.	.	.	.	.	.	.	.	.	.	.
.	.	.	16e/LL	.	16g/LL	.	.	.	.	.	.	.	.	.	.	.	.	.	.
8r	.	.	16e/	.	16g/	.	.	.	.	.	.	.	.	.	.	.	.	.	.
.	.	.	16e/JJ	.	16g/JJ	.	.	.	.	.	.	.	.	.	.	.	.	.	.
8c\	.	.	16r	.	16r	.	.	.	.	.	.	.	.	.	.	.	.	.	.
.	.	.	16e/LL	.	16g/LL	.	.	.	.	.	.	.	.	.	.	.	.	.	.
8r	.	.	16e/	.	16g/	.	16d\LL	-ne-	.	.	.	.	.	.	.	.	.	.	.
.	.	.	16e/JJ	.	16g/JJ	.	16c\JJ	.	.	.	.	.	.	.	.	.	.	.	.
=20	=20	=20	=20	=20	=20	=20	=20	=20	=20	=20	=20	=20	=20	=20	=20	=20	=20	=20	=20
!	!	!	!	!	!LO:TX:t=P:problem:takt zapisany repetycją	!	!	!	!	!	!	!	!	!	!	!	!	!	!
8B\	.	.	16r	.	16ryy	.	8.d\L	-Dic-	2.ryy	2.ryy	2.ryy	2.ryy	2.ryy	.	.	.	.	.	.
.	.	.	16d/LL	.	16g/LLyy	.	.	.	.	.	.	.	.	.	.	.	.	.	.
8r	.	.	16d/	.	16g/yy	.	.	.	.	.	.	.	.	.	.	.	.	.	.
.	.	.	16d/JJ	.	16g/JJyy	.	16B\Jk	.	.	.	.	.	.	.	.	.	.	.	.
8B\	.	.	16r	.	16ryy	.	4G\	-tus	.	.	.	.	.	.	.	.	.	.	.
.	.	.	16d/LL	.	16g/LLyy	.	.	.	.	.	.	.	.	.	.	.	.	.	.
8r	.	.	16d/	.	16g/yy	.	.	.	.	.	.	.	.	.	.	.	.	.	.
.	.	.	16d/JJ	.	16g/JJyy	.	.	.	.	.	.	.	.	.	.	.	.	.	.
8B\	.	.	16r	.	16ryy	.	8r	.	.	.	.	.	.	.	.	.	.	.	.
.	.	.	16d/LL	.	16g/LLyy	.	.	.	.	.	.	.	.	.	.	.	.	.	.
8r	.	.	16d/	.	16g/yy	.	16B\LL	qui	.	.	.	.	.	.	.	.	.	.	.
.	.	.	16d/JJ	.	16g/JJyy	.	16d\JJ	.	.	.	.	.	.	.	.	.	.	.	.
!	!	!	!	!	!LO:LB:g=original	!	!LO:LB:g=original	!	!	!	!	!	!	!	!	!	!	!	!
=21	=21	=21	=21	=21	=21	=21	=21	=21	=21	=21	=21	=21	=21	=21	=21	=21	=21	=21	=21
8c\	6_	.	16r	.	16r	.	16d\LL	ve-	2.ryy	2.ryy	2.ryy	2.ryy	2.ryy	.	.	.	.	.	.
.	.	.	16e/LL	.	16a/LL	.	16c\	.	.	.	.	.	.	.	.	.	.	.	.
8r	.	.	16e/	.	16a/	.	16c\	.	.	.	.	.	.	.	.	.	.	.	.
.	.	.	16e/JJ	.	16a/JJ	.	16B\JJ	.	.	.	.	.	.	.	.	.	.	.	.
8c\	.	.	16r	.	16r	.	16B\LL	.	.	.	.	.	.	.	.	.	.	.	.
.	.	.	16e/LL	.	16a/LL	.	16A\	.	.	.	.	.	.	.	.	.	.	.	.
8r	.	.	16e/	.	16a/	.	16A\	.	.	.	.	.	.	.	.	.	.	.	.
.	.	.	16e/JJ	.	16a/JJ	.	16B\JJ	.	.	.	.	.	.	.	.	.	.	.	.
!	!	!	!	!	!	!	!LO:SIC:v:s=16c#\LL	!	!	!	!	!	!	!	!	!	!	!	!
8c#X\	6	.	16r	.	16r	.	16c\LL	.	.	.	.	.	.	.	.	.	.	.	.
.	.	.	16e/LL	.	16g/LL	.	16A\	.	.	.	.	.	.	.	.	.	.	.	.
8r	.	.	16e/	.	16g/	.	16E\	.	.	.	.	.	.	.	.	.	.	.	.
.	.	.	16e/JJ	.	16g/JJ	.	16A\JJ	.	.	.	.	.	.	.	.	.	.	.	.
=22	=22	=22	=22	=22	=22	=22	=22	=22	=22	=22	=22	=22	=22	=22	=22	=22	=22	=22	=22
4d\	6 4	.	4g/	.	4b/	.	4G\	.	2.ryy	2.ryy	2.ryy	2.ryy	2.ryy	.	.	.	.	.	.
4D/	#	.	4f#X/	.	4a/	.	8F#X\	-nit	.	.	.	.	.	.	.	.	.	.	.
.	.	.	.	.	.	.	8d\	in	.	.	.	.	.	.	.	.	.	.	.
4r	.	.	4r	.	4r	.	8d\	no-	.	.	.	.	.	.	.	.	.	.	.
.	.	.	.	.	.	.	8d\	-mi-	.	.	.	.	.	.	.	.	.	.	.
!	!	!	!LO:LB:g=original	!	!	!	!	!	!	!	!	!	!	!	!	!	!	!	!
=23	=23	=23	=23	=23	=23	=23	=23	=23	=23	=23	=23	=23	=23	=23	=23	=23	=23	=23	=23
4G\	.	.	16B/LL	.	4.gg\	.	4.d\	-ne	2.ryy	2.ryy	2.ryy	2.ryy	2.ryy	0.r	0.r	0.r	0.r	0.r	0.r
.	.	.	16d/	.	.	.	.	.	.	.	.	.	.	.	.	.	.	.	.
.	.	.	16g/	.	.	.	.	.	.	.	.	.	.	.	.	.	.	.	.
.	.	.	16d/JJ	.	.	.	.	.	.	.	.	.	.	.	.	.	.	.	.
4r	.	.	16B/LL	.	.	.	.	.	.	.	.	.	.	.	.	.	.	.	.
.	.	.	16d/	.	.	.	.	.	.	.	.	.	.	.	.	.	.	.	.
.	.	.	16g/	.	16dd\LL	.	16B\LL	in	.	.	.	.	.	.	.	.	.	.	.
.	.	.	16d/JJ	.	16b\JJ	.	16G\JJ	.	.	.	.	.	.	.	.	.	.	.	.
4D\	#	.	16c/LL	.	8a\L	.	16c\LL	no-	.	.	.	.	.	.	.	.	.	.	.
.	.	.	16d/	.	.	.	16A\	.	.	.	.	.	.	.	.	.	.	.	.
.	.	.	16f#X/	.	8cc\J	.	16G\	-mi-	.	.	.	.	.	.	.	.	.	.	.
.	.	.	16d/JJ	.	.	.	16F#X\JJ	.	.	.	.	.	.	.	.	.	.	.	.
!LO:LB:g=original	!	!	!	!	!	!	!	!	!	!	!	!	!	!	!	!	!	!	!
=24	=24	=24	=24	=24	=24	=24	=24	=24	=24	=24	=24	=24	=24	=24	=24	=24	=24	=24	=24
4GG/	.	.	16B/LL	.	8.b/L	.	8.G\L	-ne	2.ryy	2.ryy	2.ryy	2.ryy	2.ryy	.	.	.	.	.	.
.	.	.	16d/	.	.	.	.	.	.	.	.	.	.	.	.	.	.	.	.
.	.	.	16g/	.	.	.	.	.	.	.	.	.	.	.	.	.	.	.	.
.	.	.	16d/JJ	.	16g/Jk	.	16B\Jk	.	.	.	.	.	.	.	.	.	.	.	.
4D/	#	.	16c/LL	.	4f#X/	.	8A\L	Do-	.	.	.	.	.	.	.	.	.	.	.
.	.	.	16d/	.	.	.	.	.	.	.	.	.	.	.	.	.	.	.	.
.	.	.	16a/	.	.	.	8d\	.	.	.	.	.	.	.	.	.	.	.	.
.	.	.	16d/JJ	.	.	.	.	.	.	.	.	.	.	.	.	.	.	.	.
4r	.	.	16c/LL	.	4r	.	8d\	-mi-	.	.	.	.	.	.	.	.	.	.	.
.	.	.	16d/	.	.	.	.	.	.	.	.	.	.	.	.	.	.	.	.
.	.	.	16a/	.	.	.	8d\J	-ni	.	.	.	.	.	.	.	.	.	.	.
.	.	.	16d/JJ	.	.	.	.	.	.	.	.	.	.	.	.	.	.	.	.
=25	=25	=25	=25	=25	=25	=25	=25	=25	=25	=25	=25	=25	=25	=25	=25	=25	=25	=25	=25
4G\	.	.	16B/LL	.	4.gg\	.	4.d\	Be-	2.ryy	2.ryy	2.ryy	2.ryy	2.ryy	.	.	.	.	.	.
.	.	.	16d/	.	.	.	.	.	.	.	.	.	.	.	.	.	.	.	.
.	.	.	16g/	.	.	.	.	.	.	.	.	.	.	.	.	.	.	.	.
.	.	.	16d/JJ	.	.	.	.	.	.	.	.	.	.	.	.	.	.	.	.
4r	.	.	16B/LL	.	.	.	.	.	.	.	.	.	.	.	.	.	.	.	.
.	.	.	16d/	.	.	.	.	.	.	.	.	.	.	.	.	.	.	.	.
.	.	.	16g/	.	16dd\LL	.	16B\LL	.	.	.	.	.	.	.	.	.	.	.	.
.	.	.	16d/JJ	.	16b\JJ	.	16G\JJ	.	.	.	.	.	.	.	.	.	.	.	.
4D\	.	.	16c/LL	.	8a\L	.	16c\LL	[-ne]-	.	.	.	.	.	.	.	.	.	.	.
.	.	.	16d/	.	.	.	16A\	.	.	.	.	.	.	.	.	.	.	.	.
.	.	.	16f#X/	.	8cc\J	.	16G\	.	.	.	.	.	.	.	.	.	.	.	.
.	.	.	16d/JJ	.	.	.	16F#X\JJ	.	.	.	.	.	.	.	.	.	.	.	.
!	!	!	!	!	!	!	!LO:LB:g=original	!	!	!	!	!	!	!	!	!	!	!	!
=26	=26	=26	=26	=26	=26	=26	=26	=26	=26	=26	=26	=26	=26	=26	=26	=26	=26	=26	=26
4GG/	.	.	16B/LL	.	8.b/L	.	8.G\L	-dic-	2.ryy	2.ryy	2.ryy	2.ryy	2.ryy	.	.	.	.	.	.
.	.	.	16d/	.	.	.	.	.	.	.	.	.	.	.	.	.	.	.	.
.	.	.	16g/	.	.	.	.	.	.	.	.	.	.	.	.	.	.	.	.
.	.	.	16d/JJ	.	16g/Jk	.	16B\Jk	.	.	.	.	.	.	.	.	.	.	.	.
!	!	!	!LO:TX:t=P:problem:mixed beam	!	!LO:TX:t=P:problem:mixed beam	!	!	!	!	!	!	!	!	!	!	!	!	!	!
4D/	.	.	8d/L	.	8f#X/L	.	8A\L	-tus	.	.	.	.	.	.	.	.	.	.	.
.	.	.	8b\	.	8dd\	.	(8D\	.	.	.	.	.	.	.	.	.	.	.	.
4r	.	.	8a\	.	8cc\	.	8E\	.	.	.	.	.	.	.	.	.	.	.	.
!	!	!	!	!	!	!	!LO:SIC:v:s=8F#\J	!	!	!	!	!	!	!	!	!	!	!	!
.	.	.	8f#X\J	.	16b\L	.	8F\J	.	.	.	.	.	.	.	.	.	.	.	.
.	.	.	.	.	16a\JJ	.	.	.	.	.	.	.	.	.	.	.	.	.	.
=27	=27	=27	=27	=27	=27	=27	=27	=27	=27	=27	=27	=27	=27	=27	=27	=27	=27	=27	=27
*tremolo	*	*	*	*	*	*	*	*	*	*	*	*	*	*	*	*	*	*	*
8B\L	6 3	.	16g\LL	.	16b\LL	.	16G\LL)	.	2.ryy	2.ryy	2.ryy	2.ryy	2.ryy	0.r	0.r	0.r	0.r	0.r	0.r
.	.	.	16a\	.	16cc\	.	16d\	qui	.	.	.	.	.	.	.	.	.	.	.
8B\	.	.	16b\	.	16dd\	.	16B\	.	.	.	.	.	.	.	.	.	.	.	.
.	.	.	16b\JJ	.	16dd\JJ	.	16G\JJ	.	.	.	.	.	.	.	.	.	.	.	.
8B\	.	.	16g\LL	.	16b\LL	.	16F#X\LL	.	.	.	.	.	.	.	.	.	.	.	.
.	.	.	16a\	.	16cc\	.	16G\	.	.	.	.	.	.	.	.	.	.	.	.
8B\	.	.	16b\	.	16dd\	.	16B\	.	.	.	.	.	.	.	.	.	.	.	.
.	.	.	16b\JJ	.	16dd\JJ	.	16G\JJ	.	.	.	.	.	.	.	.	.	.	.	.
8B\	.	.	16b\LL	.	16dd\LL	.	16F#X\LL	.	.	.	.	.	.	.	.	.	.	.	.
.	.	.	16cc\	.	16ee\	.	16G\	.	.	.	.	.	.	.	.	.	.	.	.
8B\J	.	.	16dd\	.	16ffn\	.	16D\	.	.	.	.	.	.	.	.	.	.	.	.
.	.	.	16dd\JJ	.	16ff\JJ	.	16Fn\JJ	.	.	.	.	.	.	.	.	.	.	.	.
*Xtremolo	*	*	*	*	*	*	*	*	*	*	*	*	*	*	*	*	*	*	*
!	!	!	!LO:LB:g=original	!	!	!	!	!	!	!	!	!	!	!	!	!	!	!	!
=28	=28	=28	=28	=28	=28	=28	=28	=28	=28	=28	=28	=28	=28	=28	=28	=28	=28	=28	=28
!LO:TX:t=P:problem:mixed beam	!	!	!	!	!	!	!	!	!	!	!	!	!	!	!	!	!	!	!
8c\L	.	.	8cc/L	.	8ee\L	.	16E\LL	ve-	2.ryy	2.ryy	2.ryy	2.ryy	2.ryy	.	.	.	.	.	.
.	.	.	.	.	.	.	16e\	.	.	.	.	.	.	.	.	.	.	.	.
8c\	.	.	8a/	.	8cc\	.	16c\	.	.	.	.	.	.	.	.	.	.	.	.
.	.	.	.	.	.	.	16A\JJ	.	.	.	.	.	.	.	.	.	.	.	.
8d\	6 4	.	8g/	.	8b\	.	4G\	.	.	.	.	.	.	.	.	.	.	.	.
8d\	.	.	8g/	.	8b\	.	.	.	.	.	.	.	.	.	.	.	.	.	.
8D/	7 #	.	8f#X/	.	8cc\	.	4ATT\	.	.	.	.	.	.	.	.	.	.	.	.
8D/J	.	.	8f#/J	.	8cc\J	.	.	.	.	.	.	.	.	.	.	.	.	.	.
!	!	!	!	!	!LO:LB:g=original	!	!	!	!	!	!	!	!	!	!	!	!	!	!
=29	=29	=29	=29	=29	=29	=29	=29	=29	=29	=29	=29	=29	=29	=29	=29	=29	=29	=29	=29
*tremolo	*	*	*	*	*	*	*	*	*	*	*	*	*	*	*	*	*	*	*
8B\L	6	.	16g\LL	.	16b\LL	.	16B\LL	.	2.ryy	2.ryy	2.ryy	2.ryy	2.ryy	.	.	.	.	.	.
.	.	.	16a\	.	16cc\	.	16d\	.	.	.	.	.	.	.	.	.	.	.	.
8B\	.	.	16b\	.	16dd\	.	16B\	.	.	.	.	.	.	.	.	.	.	.	.
.	.	.	16b\JJ	.	16dd\JJ	.	16G\JJ	.	.	.	.	.	.	.	.	.	.	.	.
8B\	.	.	16g\LL	.	16b\LL	.	16F#X\LL	.	.	.	.	.	.	.	.	.	.	.	.
.	.	.	16a\	.	16cc\	.	16G\	.	.	.	.	.	.	.	.	.	.	.	.
8B\	.	.	16b\	.	16dd\	.	16B\	.	.	.	.	.	.	.	.	.	.	.	.
.	.	.	16b\JJ	.	16dd\JJ	.	16G\JJ	.	.	.	.	.	.	.	.	.	.	.	.
8B\	.	.	16b\LL	.	16dd\LL	.	16F#\LL	.	.	.	.	.	.	.	.	.	.	.	.
.	.	.	16cc\	.	16ee\	.	16G\	.	.	.	.	.	.	.	.	.	.	.	.
8B\J	.	.	16dd\	.	16ff\	.	16D\	.	.	.	.	.	.	.	.	.	.	.	.
.	.	.	16dd\JJ	.	16ff\JJ	.	16Fn\JJ	.	.	.	.	.	.	.	.	.	.	.	.
*Xtremolo	*	*	*	*	*	*	*	*	*	*	*	*	*	*	*	*	*	*	*
!	!	!	!	!	!	!	!LO:LB:g=original	!	!	!	!	!	!	!	!	!	!	!	!
=30	=30	=30	=30	=30	=30	=30	=30	=30	=30	=30	=30	=30	=30	=30	=30	=30	=30	=30	=30
!LO:TX:t=P:problem:mixed beam	!	!	!	!	!	!	!	!	!	!	!	!	!	!	!	!	!	!	!
8c\L	.	.	8cc\L	.	8ee\L	.	16E\LL	.	2.ryy	2.ryy	2.ryy	2.ryy	2.ryy	.	.	.	.	.	.
.	.	.	.	.	.	.	16e\	.	.	.	.	.	.	.	.	.	.	.	.
8c\	.	.	8a\J	.	8cc\J	.	32d\L	.	.	.	.	.	.	.	.	.	.	.	.
.	.	.	.	.	.	.	32c\	.	.	.	.	.	.	.	.	.	.	.	.
.	.	.	.	.	.	.	32B\	.	.	.	.	.	.	.	.	.	.	.	.
.	.	.	.	.	.	.	32A\JJJ	.	.	.	.	.	.	.	.	.	.	.	.
*	*	*	*tremolo	*	*	*	*	*	*	*	*	*	*	*	*	*	*	*	*
8d\	6 4	.	16g/LL	.	16b\LL	.	8.G\L	.	.	.	.	.	.	.	.	.	.	.	.
.	.	.	16g/	.	16gg\	.	.	.	.	.	.	.	.	.	.	.	.	.	.
8d\	.	.	16g/	.	16gg\	.	.	.	.	.	.	.	.	.	.	.	.	.	.
.	.	.	16g/JJ	.	16gg\JJ	.	16A\Jk	.	.	.	.	.	.	.	.	.	.	.	.
!	!	!	!	!	!LO:TX:t=P:problem:mixed beam	!	!	!	!	!	!	!	!	!	!	!	!	!	!
8D/	5 #3	.	16a/LL	.	16a/LL	.	4ATT\	.	.	.	.	.	.	.	.	.	.	.	.
.	.	.	16a/	.	16ff#X\	.	.	.	.	.	.	.	.	.	.	.	.	.	.
8D/J	.	.	16a/	.	16ff#\	.	.	.	.	.	.	.	.	.	.	.	.	.	.
.	.	.	16a/JJ	.	16ff#\JJ	.	.	.	.	.	.	.	.	.	.	.	.	.	.
*	*	*	*Xtremolo	*	*	*	*	*	*	*	*	*	*	*	*	*	*	*	*
=31	=31	=31	=31	=31	=31	=31	=31	=31	=31	=31	=31	=31	=31	=31	=31	=31	=31	=31	=31
*tremolo	*	*	*	*	*	*	*	*	*	*	*	*	*	*	*	*	*	*	*
8G\L	.	.	16B/LL	.	16gg\LL	.	4G\	-nit	2.ryy	2.ryy	2.ryy	2.ryy	2.ryy	0.r	0.r	0.r	0.r	0.r	0.r
.	.	.	16d/	.	16aa\	.	.	.	.	.	.	.	.	.	.	.	.	.	.
8G\	.	.	16B/	.	16bb\	.	.	.	.	.	.	.	.	.	.	.	.	.	.
.	.	.	16d/JJ	.	16ccc\JJ	.	.	.	.	.	.	.	.	.	.	.	.	.	.
*	*	*	*tremolo	*	*	*	*	*	*	*	*	*	*	*	*	*	*	*	*
8G\	.	.	16B/LL	.	16ddd\LL	.	4r	.	.	.	.	.	.	.	.	.	.	.	.
.	.	.	16d/	.	16bb\	.	.	.	.	.	.	.	.	.	.	.	.	.	.
!	!	!	!	!	!LO:N:vis=16.	!	!	!	!	!	!	!	!	!	!	!	!	!	!
8G\	.	.	16B/	.	16eee\	.	.	.	.	.	.	.	.	.	.	.	.	.	.
.	.	.	16d/	.	16ddd\JJ	.	.	.	.	.	.	.	.	.	.	.	.	.	.
8G\	.	.	16B/	.	16ccc\LL	.	4r	.	.	.	.	.	.	.	.	.	.	.	.
.	.	.	16d/	.	16bb\	.	.	.	.	.	.	.	.	.	.	.	.	.	.
8G\J	.	.	16B/	.	16aa\	.	.	.	.	.	.	.	.	.	.	.	.	.	.
.	.	.	16d/JJ	.	16gg\JJ	.	.	.	.	.	.	.	.	.	.	.	.	.	.
=32	=32	=32	=32	=32	=32	=32	=32	=32	=32	=32	=32	=32	=32	=32	=32	=32	=32	=32	=32
!	!	!	!	!	!	!	!LO:TX:a:t=6.	!	!	!	!	!	!	!	!	!	!	!	!
8A\L	.	.	16c/LL	.	8.bb\L	.	0.r	.	2.ryy	2.ryy	2.ryy	2.ryy	2.ryy	.	.	.	.	.	.
.	.	.	16d/	.	.	.	.	.	.	.	.	.	.	.	.	.	.	.	.
8A\	.	.	16c/	.	.	.	.	.	.	.	.	.	.	.	.	.	.	.	.
.	.	.	16d/	.	16aa\Jk	.	.	.	.	.	.	.	.	.	.	.	.	.	.
8A\	.	.	16c/	.	4.aa\	.	.	.	.	.	.	.	.	.	.	.	.	.	.
.	.	.	16d/	.	.	.	.	.	.	.	.	.	.	.	.	.	.	.	.
8A\J	.	.	16c/	.	.	.	.	.	.	.	.	.	.	.	.	.	.	.	.
*Xtremolo	*	*	*	*	*	*	*	*	*	*	*	*	*	*	*	*	*	*	*
.	.	.	16d/JJ	.	.	.	.	.	.	.	.	.	.	.	.	.	.	.	.
*	*	*	*Xtremolo	*	*	*	*	*	*	*	*	*	*	*	*	*	*	*	*
8G\L	.	.	16c/LL	.	.	.	.	.	.	.	.	.	.	.	.	.	.	.	.
.	.	.	16d/	.	.	.	.	.	.	.	.	.	.	.	.	.	.	.	.
8G\J	.	.	16c/	.	8gg\	.	.	.	.	.	.	.	.	.	.	.	.	.	.
.	.	.	16d/JJ	.	.	.	.	.	.	.	.	.	.	.	.	.	.	.	.
=33	=33	=33	=33	=33	=33	=33	=33	=33	=33	=33	=33	=33	=33	=33	=33	=33	=33	=33	=33
*tremolo	*	*	*	*	*	*	*	*	*	*	*	*	*	*	*	*	*	*	*
8F#X\L	5 3	.	16A/LL	.	16ff#X\LL	.	.	.	2.ryy	2.ryy	2.ryy	2.ryy	2.ryy	.	.	.	.	.	.
.	.	.	16d/	.	16gg\	.	.	.	.	.	.	.	.	.	.	.	.	.	.
8F#\	.	.	16A/	.	16aa\	.	.	.	.	.	.	.	.	.	.	.	.	.	.
.	.	.	16d/JJ	.	16bb\JJ	.	.	.	.	.	.	.	.	.	.	.	.	.	.
*	*	*	*tremolo	*	*	*	*	*	*	*	*	*	*	*	*	*	*	*	*
8F#\	.	.	16A/LL	.	16ccc\LL	.	.	.	.	.	.	.	.	.	.	.	.	.	.
.	.	.	16d/	.	16aa\	.	.	.	.	.	.	.	.	.	.	.	.	.	.
8F#\	.	.	16A/	.	16gg\	.	.	.	.	.	.	.	.	.	.	.	.	.	.
.	.	.	16d/	.	16ff#\JJ	.	.	.	.	.	.	.	.	.	.	.	.	.	.
8F#\	.	.	16A/	.	8.ddd\L	.	.	.	.	.	.	.	.	.	.	.	.	.	.
.	.	.	16d/	.	.	.	.	.	.	.	.	.	.	.	.	.	.	.	.
8F#\J	.	.	16A/	.	.	.	.	.	.	.	.	.	.	.	.	.	.	.	.
.	.	.	16d/JJ	.	16ccc\Jk	.	.	.	.	.	.	.	.	.	.	.	.	.	.
*	*	*	*Xtremolo	*	*	*	*	*	*	*	*	*	*	*	*	*	*	*	*
=34	=34	=34	=34	=34	=34	=34	=34	=34	=34	=34	=34	=34	=34	=34	=34	=34	=34	=34	=34
8G\L	.	.	16B/LL	.	8.ccc\L	.	.	.	2.ryy	2.ryy	2.ryy	2.ryy	2.ryy	.	.	.	.	.	.
.	.	.	16d/	.	.	.	.	.	.	.	.	.	.	.	.	.	.	.	.
8G\	.	.	16B/	.	.	.	.	.	.	.	.	.	.	.	.	.	.	.	.
.	.	.	16d/JJ	.	16bb\Jk	.	.	.	.	.	.	.	.	.	.	.	.	.	.
*	*	*	*tremolo	*	*	*	*	*	*	*	*	*	*	*	*	*	*	*	*
8G\	.	.	16B/LL	.	4bb\	.	.	.	.	.	.	.	.	.	.	.	.	.	.
.	.	.	16d/	.	.	.	.	.	.	.	.	.	.	.	.	.	.	.	.
8G\	.	.	16B/	.	.	.	.	.	.	.	.	.	.	.	.	.	.	.	.
.	.	.	16d/	.	.	.	.	.	.	.	.	.	.	.	.	.	.	.	.
8G\	.	.	16B/	.	16bb\LL	.	.	.	.	.	.	.	.	.	.	.	.	.	.
.	.	.	16d/	.	16ddd\	.	.	.	.	.	.	.	.	.	.	.	.	.	.
8G\J	.	.	16B/	.	16eee\	.	.	.	.	.	.	.	.	.	.	.	.	.	.
.	.	.	16d/JJ	.	16fff#X\JJ	.	.	.	.	.	.	.	.	.	.	.	.	.	.
*	*	*	*Xtremolo	*	*	*	*	*	*	*	*	*	*	*	*	*	*	*	*
!	!	!	!LO:LB:g=original	!	!LO:LB:g=original	!	!	!	!	!	!	!	!	!	!	!	!	!	!
=35	=35	=35	=35	=35	=35	=35	=35	=35	=35	=35	=35	=35	=35	=35	=35	=35	=35	=35	=35
8B\L	.	.	16d/LL	.	16ggg\LL	.	.	.	2.ryy	2.ryy	2.ryy	2.ryy	2.ryy	0.r	0.r	0.r	0.r	0.r	0.r
.	.	.	16g/	.	16fff#X\	.	.	.	.	.	.	.	.	.	.	.	.	.	.
8B\	.	.	16d/	.	16eee\	.	.	.	.	.	.	.	.	.	.	.	.	.	.
.	.	.	16g/JJ	.	16ddd\JJ	.	.	.	.	.	.	.	.	.	.	.	.	.	.
*	*	*	*tremolo	*	*	*	*	*	*	*	*	*	*	*	*	*	*	*	*
8B\	.	.	16d/LL	.	8.ddd\L	.	.	.	.	.	.	.	.	.	.	.	.	.	.
.	.	.	16g/	.	.	.	.	.	.	.	.	.	.	.	.	.	.	.	.
8B\	.	.	16d/	.	.	.	.	.	.	.	.	.	.	.	.	.	.	.	.
.	.	.	16g/	.	16bb\Jk	.	.	.	.	.	.	.	.	.	.	.	.	.	.
8B\	.	.	16d/	.	16ddd\LL	.	.	.	.	.	.	.	.	.	.	.	.	.	.
.	.	.	16g/	.	16ccc\	.	.	.	.	.	.	.	.	.	.	.	.	.	.
8B\J	.	.	16d/	.	16aa\	.	.	.	.	.	.	.	.	.	.	.	.	.	.
.	.	.	16g/JJ	.	16gg\JJ	.	.	.	.	.	.	.	.	.	.	.	.	.	.
*	*	*	*Xtremolo	*	*	*	*	*	*	*	*	*	*	*	*	*	*	*	*
!LO:LB:g=original	!	!	!	!	!	!	!	!	!	!	!	!	!	!	!	!	!	!	!
=36	=36	=36	=36	=36	=36	=36	=36	=36	=36	=36	=36	=36	=36	=36	=36	=36	=36	=36	=36
8c\L	.	.	16e/LL	.	16ccc\LL	.	1.r	.	2.ryy	2.ryy	2.ryy	2.ryy	2.ryy	.	.	.	.	.	.
.	.	.	16g/	.	16gg\	.	.	.	.	.	.	.	.	.	.	.	.	.	.
8c\	.	.	16e/	.	16aa\	.	.	.	.	.	.	.	.	.	.	.	.	.	.
.	.	.	16g/JJ	.	16bb\JJ	.	.	.	.	.	.	.	.	.	.	.	.	.	.
*	*	*	*tremolo	*	*	*	*	*	*	*	*	*	*	*	*	*	*	*	*
8c\	.	.	16e/LL	.	16ccc\LL	.	.	.	.	.	.	.	.	.	.	.	.	.	.
.	.	.	16g/	.	16ddd\	.	.	.	.	.	.	.	.	.	.	.	.	.	.
8c\	.	.	16e/	.	16eee\	.	.	.	.	.	.	.	.	.	.	.	.	.	.
.	.	.	16g/	.	16fff#X\JJ	.	.	.	.	.	.	.	.	.	.	.	.	.	.
8c\	.	.	16e/	.	16ggg\LL	.	.	.	.	.	.	.	.	.	.	.	.	.	.
.	.	.	16g/	.	16fff#\	.	.	.	.	.	.	.	.	.	.	.	.	.	.
!	!	!	!	!	!LO:TX:a:t=e:color=grey	!	!	!	!	!	!	!	!	!	!	!	!	!	!
8c\J	.	.	16e/	.	16ggg\	.	.	.	.	.	.	.	.	.	.	.	.	.	.
!	!	!	!	!	!LO:TX:a:t=d:color=grey	!	!	!	!	!	!	!	!	!	!	!	!	!	!
.	.	.	16g/JJ	.	16fff#\JJ	.	.	.	.	.	.	.	.	.	.	.	.	.	.
*Xtremolo	*	*	*Xtremolo	*	*	*	*	*	*	*	*	*	*	*	*	*	*	*	*
=37	=37	=37	=37	=37	=37	=37	=37	=37	=37	=37	=37	=37	=37	=37	=37	=37	=37	=37	=37
!LO:TX:t=P:problem:mixed beam	!	!	!	!	!	!	!	!	!	!	!	!	!	!	!	!	!	!	!
8c\L	.	.	16d/LL	.	16ddd\LL	.	.	.	2.ryy	2.ryy	2.ryy	2.ryy	2.ryy	.	.	.	.	.	.
.	.	.	16g/	.	16eee\	.	.	.	.	.	.	.	.	.	.	.	.	.	.
8c\	.	.	16e/	.	16ccc\	.	.	.	.	.	.	.	.	.	.	.	.	.	.
.	.	.	16c/JJ	.	16aa\JJ	.	.	.	.	.	.	.	.	.	.	.	.	.	.
8d\	.	.	16B/LL	.	8.gg\L	.	.	.	.	.	.	.	.	.	.	.	.	.	.
.	.	.	16d/	.	.	.	.	.	.	.	.	.	.	.	.	.	.	.	.
8d\	.	.	16B/	.	.	.	.	.	.	.	.	.	.	.	.	.	.	.	.
.	.	.	16d/JJ	.	16aa\Jk	.	.	.	.	.	.	.	.	.	.	.	.	.	.
8D/	.	.	16c/LL	.	4aaTT\	.	.	.	.	.	.	.	.	.	.	.	.	.	.
.	.	.	16d/	.	.	.	.	.	.	.	.	.	.	.	.	.	.	.	.
8D/J	.	.	16c/	.	.	.	.	.	.	.	.	.	.	.	.	.	.	.	.
.	.	.	16d/JJ	.	.	.	.	.	.	.	.	.	.	.	.	.	.	.	.
=38	=38	=38	=38	=38	=38	=38	=38	=38	=38	=38	=38	=38	=38	=38	=38	=38	=38	=38	=38
4G\	.	.	4g/	.	4gg\	.	4r	.	2.ryy	2.ryy	2.ryy	2.ryy	2.ryy	.	.	.	.	.	.
4GG/	.	.	4G/	.	4G/	.	4r	.	.	.	.	.	.	.	.	.	.	.	.
4r	.	.	4r	.	4r	.	8D/	Be-	.	.	.	.	.	.	.	.	.	.	.
.	.	.	.	.	.	.	8D/	-ne-	.	.	.	.	.	.	.	.	.	.	.
=39	=39	=39	=39	=39	=39	=39	=39	=39	=39	=39	=39	=39	=39	=39	=39	=39	=39	=39	=39
!	!	!LO:DY:b:t=pia	!	!	!	!	!	!	!	!	!	!	!	!	!	!	!	!	!
8G\	5 3	p	16r	.	16r	.	4.G\	-dic-	2.ryy	2.ryy	2.ryy	2.ryy	2.ryy	0.r	0.r	0.r	0.r	0.r	0.r
.	.	.	16g/LL	.	16b\LL	.	.	.	.	.	.	.	.	.	.	.	.	.	.
8r	.	.	16g/	.	16b\	.	.	.	.	.	.	.	.	.	.	.	.	.	.
.	.	.	16g/JJ	.	16b\JJ	.	.	.	.	.	.	.	.	.	.	.	.	.	.
8G\	.	.	16r	.	16r	.	.	.	.	.	.	.	.	.	.	.	.	.	.
.	.	.	16g/LL	.	16b\LL	.	.	.	.	.	.	.	.	.	.	.	.	.	.
8r	.	.	16g/	.	16b\	.	16A\LL	.	.	.	.	.	.	.	.	.	.	.	.
.	.	.	16g/JJ	.	16b\JJ	.	16B\JJ	.	.	.	.	.	.	.	.	.	.	.	.
8G\	6 4	.	16r	.	16r	.	8c\L	.	.	.	.	.	.	.	.	.	.	.	.
.	.	.	16aLL 16f#X/	.	16cc\LL	.	.	.	.	.	.	.	.	.	.	.	.	.	.
8r	.	.	16a 16f#/	.	16cc\	.	16d\L	.	.	.	.	.	.	.	.	.	.	.	.
.	.	.	16aJJ 16f#/	.	16cc\JJ	.	16e\JJ	.	.	.	.	.	.	.	.	.	.	.	.
=40	=40	=40	=40	=40	=40	=40	=40	=40	=40	=40	=40	=40	=40	=40	=40	=40	=40	=40	=40
8G\	6 4	.	16r	.	16r	.	(4e\	.	2.ryy	2.ryy	2.ryy	2.ryy	2.ryy	.	.	.	.	.	.
!	!	!	!LO:SIC:n=2:s=16f#/	!	!	!	!	!	!	!	!	!	!	!	!	!	!	!	!
.	.	.	16aLL 16f/	.	16cc\LL	.	.	.	.	.	.	.	.	.	.	.	.	.	.
!	!	!	!LO:SIC:n=2:s=16f#/	!	!	!	!	!	!	!	!	!	!	!	!	!	!	!	!
8r	.	.	16a 16f/	.	16cc\	.	.	.	.	.	.	.	.	.	.	.	.	.	.
!	!	!	!LO:SIC:n=2:s=16f#/	!	!	!	!	!	!	!	!	!	!	!	!	!	!	!	!
.	.	.	16aJJ 16f/	.	16cc\JJ	.	.	.	.	.	.	.	.	.	.	.	.	.	.
8G\	5 3	.	16r	.	16r	.	4d\)	-tus	.	.	.	.	.	.	.	.	.	.	.
.	.	.	16g/LL	.	16b\LL	.	.	.	.	.	.	.	.	.	.	.	.	.	.
8r	.	.	16g/	.	16b\	.	.	.	.	.	.	.	.	.	.	.	.	.	.
.	.	.	16g/JJ	.	16b\JJ	.	.	.	.	.	.	.	.	.	.	.	.	.	.
8B\	6	.	16r	.	16r	.	8r	.	.	.	.	.	.	.	.	.	.	.	.
.	.	.	16g/LL	.	16b\LL	.	.	.	.	.	.	.	.	.	.	.	.	.	.
8r	.	.	16g/	.	16b\	.	16B\LL	qui	.	.	.	.	.	.	.	.	.	.	.
.	.	.	16g/JJ	.	16b\JJ	.	16d\JJ	.	.	.	.	.	.	.	.	.	.	.	.
!	!	!	!LO:LB:g=original	!	!LO:LB:g=original	!	!LO:LB:g=original	!	!	!	!	!	!	!	!	!	!	!	!
=41	=41	=41	=41	=41	=41	=41	=41	=41	=41	=41	=41	=41	=41	=41	=41	=41	=41	=41	=41
8c\	6 3	.	16r	.	16r	.	16d\LL	ve-	2.ryy	2.ryy	2.ryy	2.ryy	2.ryy	.	.	.	.	.	.
.	.	.	16e/LL	.	16cc\LL	.	16c\	.	.	.	.	.	.	.	.	.	.	.	.
8r	.	.	16e/	.	16cc\	.	16A\	.	.	.	.	.	.	.	.	.	.	.	.
.	.	.	16e/JJ	.	16cc\JJ	.	16c\JJ	.	.	.	.	.	.	.	.	.	.	.	.
8d\	6 4	.	16r	.	16r	.	16c\LL	.	.	.	.	.	.	.	.	.	.	.	.
.	.	.	16g/LL	.	16b\LL	.	16B\	.	.	.	.	.	.	.	.	.	.	.	.
8r	.	.	16g/	.	16b\	.	16G\	.	.	.	.	.	.	.	.	.	.	.	.
.	.	.	16g/JJ	.	16b\JJ	.	16B\JJ	.	.	.	.	.	.	.	.	.	.	.	.
8D/	5 #	.	16r	.	16r	.	16B\LL	.	.	.	.	.	.	.	.	.	.	.	.
.	.	.	16f#X/LL	.	16a/LL	.	16A\	.	.	.	.	.	.	.	.	.	.	.	.
8r	.	.	16f#/	.	16a/	.	16F#X\	.	.	.	.	.	.	.	.	.	.	.	.
.	.	.	16f#/JJ	.	16a/JJ	.	16A\JJ	.	.	.	.	.	.	.	.	.	.	.	.
=42	=42	=42	=42	=42	=42	=42	=42	=42	=42	=42	=42	=42	=42	=42	=42	=42	=42	=42	=42
!LO:TX:t=P:problem:mixed beam	!	!	!	!	!	!	!	!	!	!	!	!	!	!	!	!	!	!	!
8GG/L	.	.	4B/	.	4g/	.	4.G\	.	2.ryy	2.ryy	2.ryy	2.ryy	2.ryy	.	.	.	.	.	.
8G\	.	.	.	.	.	.	.	.	.	.	.	.	.	.	.	.	.	.	.
8G\	.	.	8d/L	.	8a/L	.	.	.	.	.	.	.	.	.	.	.	.	.	.
8G\	.	.	8g/J	.	8b/J	.	16A\LL	.	.	.	.	.	.	.	.	.	.	.	.
.	.	.	.	.	.	.	16B\JJ	.	.	.	.	.	.	.	.	.	.	.	.
8F#X\	5 3	.	8a/L	.	8cc\L	.	8c\L	.	.	.	.	.	.	.	.	.	.	.	.
8F#\J	.	.	16b/L	.	16dd\L	.	16d\L	.	.	.	.	.	.	.	.	.	.	.	.
.	.	.	16cc/JJ	.	16ee\JJ	.	16e\JJ	.	.	.	.	.	.	.	.	.	.	.	.
!LO:LB:g=original	!	!	!	!	!	!	!	!	!	!	!	!	!	!	!	!	!	!	!
=43	=43	=43	=43	=43	=43	=43	=43	=43	=43	=43	=43	=43	=43	=43	=43	=43	=43	=43	=43
4G\	.	.	(16cc\LL	.	16ee\LL	.	16e\LL	.	2.ryy	2.ryy	2.ryy	2.ryy	2.ryy	2.r	2.r	2.r	2.r	2.r	2.r
.	.	.	16b\JJ)	.	16dd\JJ	.	16d\	.	.	.	.	.	.	.	.	.	.	.	.
.	.	.	16r	.	16r	.	16B\	.	.	.	.	.	.	.	.	.	.	.	.
.	.	.	16b/	.	16dd\	.	16d\JJ	.	.	.	.	.	.	.	.	.	.	.	.
4C/	.	.	16b/LL	.	16dd\LL	.	16d\LL	.	.	.	.	.	.	.	.	.	.	.	.
.	.	.	16a/JJ	.	16cc\JJ	.	16c\	.	.	.	.	.	.	.	.	.	.	.	.
.	.	.	16r	.	16r	.	16B\	.	.	.	.	.	.	.	.	.	.	.	.
.	.	.	16a/	.	16cc\	.	16c\JJ	.	.	.	.	.	.	.	.	.	.	.	.
4D/	.	.	8c/L	.	8a/L	.	16E\LL	.	.	.	.	.	.	.	.	.	.	.	.
.	.	.	.	.	.	.	16G\	.	.	.	.	.	.	.	.	.	.	.	.
.	.	.	8A/J	.	8f#X/J	.	16F#X\	.	.	.	.	.	.	.	.	.	.	.	.
.	.	.	.	.	.	.	16A\JJ	.	.	.	.	.	.	.	.	.	.	.	.
=44	=44	=44	=44	=44	=44	=44	=44	=44	=44	=44	=44	=44	=44	=44	=44	=44	=44	=44	=44
!	!	!	!	!	!	!	!	!	!	!	!	!	!	!	!	!	!LO:TX:a:i:t=Solo	!	!
4GG/	.	.	4d/	.	4g/	.	4G\	-nit,	2.ryy	2.ryy	2.ryy	2.ryy	2.ryy	2G/	2g/	8g/L	8g\L	8g/L	8g/L
.	.	.	.	.	.	.	.	.	.	.	.	.	.	.	.	8f#X/	8a\	8f#X/	8a/
4r	.	.	4r	.	4r	.	4r	.	.	.	.	.	.	.	.	8g/	8b\	8g/	8b/
.	.	.	.	.	.	.	.	.	.	.	.	.	.	.	.	8a/	8cc\	8a/	8cc/
4r	.	.	4r	.	4r	.	4r	.	.	.	.	.	.	4r	4r	8b/	8dd\	8b/	8dd/
.	.	.	.	.	.	.	.	.	.	.	.	.	.	.	.	8cc/J	8ee\J	8cc/J	8ee/J
!	!	!	!	!	!	!	!LO:LB:g=original	!	!	!	!	!	!	!	!	!	!LO:LB:g=original	!	!
=45	=45	=45	=45	=45	=45	=45	=45	=45	=45	=45	=45	=45	=45	=45	=45	=45	=45	=45	=45
!LO:TX:a:t=1.	!	!	!	!	!	!	!LO:TX:a:t=1.	!	!	!	!	!	!	!	!	!	!	!	!
2.r	.	.	4g/	.	4g/	.	2.r	.	2.ryy	2.ryy	2.ryy	2.ryy	2.ryy	4G/	4g/	8dd\L	8ff\L	8dd\L	8ffn\L
.	.	.	.	.	.	.	.	.	.	.	.	.	.	.	.	8cc#X\	8ee\	8cc#X\	8ee\
.	.	.	4G/	.	4G/	.	.	.	.	.	.	.	.	4r	4r	8dd\	8ff\	8dd\	8ff\
.	.	.	.	.	.	.	.	.	.	.	.	.	.	.	.	8ee\	8gg\	8ee\	8gg\
.	.	.	4r	.	4r	.	.	.	.	.	.	.	.	8dd\L	8ff\L	8ff\	8aa\	8ff\	8aa\
.	.	.	.	.	.	.	.	.	.	.	.	.	.	8g\J	8dd\J	8dd\J	8bb\J	8dd\J	8bb\J
!	!	!	!	!	!	!	!	!	!	!	!	!	!	!	!	!	!	!LO:LB:g=original	!LO:LB:g=original
=46	=46	=46	=46	=46	=46	=46	=46	=46	=46	=46	=46	=46	=46	=46	=46	=46	=46	=46	=46
!LO:TX:t=P:problem:mixed beam	!	!	!	!	!	!	!	!	!	!	!	!	!	!	!	!	!	!	!
8C/L	5 3	.	16c/LL	.	16e/LL	.	16G\LL	ve-	2.ryy	2.ryy	2.ryy	2.ryy	2.ryy	4cc\	4ee\	4ee\	4ccc\	4ee\	4ccc\
.	.	.	16d/	.	16fn/	.	16E\	.	.	.	.	.	.	.	.	.	.	.	.
8c\J	.	.	16e/	.	16g/	.	16D\	.	.	.	.	.	.	.	.	.	.	.	.
.	.	.	16e/JJ	.	16g/JJ	.	16C\JJ	.	.	.	.	.	.	.	.	.	.	.	.
*tremolo	*	*	*	*	*	*	*	*	*	*	*	*	*	*	*	*	*	*	*
8c\L	6_ 4_	.	16c/LL	.	16e/LL	.	4C\	.	.	.	.	.	.	4r	4r	4r	4r	4r	4r
.	.	.	16d/	.	16f/	.	.	.	.	.	.	.	.	.	.	.	.	.	.
8c\	.	.	16e/	.	16g/	.	.	.	.	.	.	.	.	.	.	.	.	.	.
.	.	.	16e/JJ	.	16g/JJ	.	.	.	.	.	.	.	.	.	.	.	.	.	.
8c\	.	.	16d/LL	.	16f/LL	.	16C\LL	.	.	.	.	.	.	4r	4r	4r	4r	4r	4r
.	.	.	16e/	.	16g/	.	16c\	.	.	.	.	.	.	.	.	.	.	.	.
8c\J	.	.	16f/	.	16a/	.	16B\	.	.	.	.	.	.	.	.	.	.	.	.
.	.	.	16f/JJ	.	16a/JJ	.	16A\JJ	.	.	.	.	.	.	.	.	.	.	.	.
*Xtremolo	*	*	*	*	*	*	*	*	*	*	*	*	*	*	*	*	*	*	*
!	!	!	!LO:LB:g=original	!	!	!	!	!	!	!	!	!	!	!	!	!LO:LB:g=original	!	!	!
=47	=47	=47	=47	=47	=47	=47	=47	=47	=47	=47	=47	=47	=47	=47	=47	=47	=47	=47	=47
!LO:TX:t=P:problem:mixed beam	!	!	!	!	!	!	!	!	!	!	!	!	!	!LO:TX:a:t=4.	!LO:TX:a:t=4.	!LO:TX:a:t=4.	!LO:TX:a:t=4.	!LO:TX:a:t=4.	!LO:TX:a:t=4.
8C/L	.	.	16d/LL	.	16f/LL	.	16A\LL	.	2.ryy	2.ryy	2.ryy	2.ryy	2.ryy	0.r	0.r	0.r	0.r	0.r	0.r
.	.	.	16e/	.	16g/	.	16B\	.	.	.	.	.	.	.	.	.	.	.	.
8c\J	.	.	16f/	.	16a/	.	16c\	.	.	.	.	.	.	.	.	.	.	.	.
.	.	.	16f/JJ	.	16a/JJ	.	16A\JJ	.	.	.	.	.	.	.	.	.	.	.	.
*tremolo	*	*	*	*	*	*	*	*	*	*	*	*	*	*	*	*	*	*	*
8c\L	5 3	.	16c/LL	.	16e/LL	.	4G\	.	.	.	.	.	.	.	.	.	.	.	.
.	.	.	16d/	.	16f/	.	.	.	.	.	.	.	.	.	.	.	.	.	.
8c\	.	.	16e/	.	16g/	.	.	.	.	.	.	.	.	.	.	.	.	.	.
.	.	.	16e/JJ	.	16g/JJ	.	.	.	.	.	.	.	.	.	.	.	.	.	.
8c\	.	.	16c/LL	.	16e/LL	.	16F#X\LL	.	.	.	.	.	.	.	.	.	.	.	.
.	.	.	16d/	.	16f/	.	16G\	.	.	.	.	.	.	.	.	.	.	.	.
8c\J	.	.	16e/	.	16g/	.	16c\	.	.	.	.	.	.	.	.	.	.	.	.
.	.	.	16e/JJ	.	16g/JJ	.	16e\JJ	.	.	.	.	.	.	.	.	.	.	.	.
!	!	!	!	!	!LO:LB:g=original	!	!	!	!	!	!	!	!	!	!	!	!	!	!
=48	=48	=48	=48	=48	=48	=48	=48	=48	=48	=48	=48	=48	=48	=48	=48	=48	=48	=48	=48
8G\L	7	.	16B/LL	.	16d/LL	.	4d\	.	2.ryy	2.ryy	2.ryy	2.ryy	2.ryy	.	.	.	.	.	.
.	.	.	16c/	.	16e/	.	.	.	.	.	.	.	.	.	.	.	.	.	.
8G\	.	.	16d/	.	16f/	.	.	.	.	.	.	.	.	.	.	.	.	.	.
.	.	.	16d/JJ	.	16f/JJ	.	.	.	.	.	.	.	.	.	.	.	.	.	.
8G\	.	.	16B/LL	.	16d/LL	.	16c\LL	.	.	.	.	.	.	.	.	.	.	.	.
.	.	.	16c/	.	16e/	.	16B\	.	.	.	.	.	.	.	.	.	.	.	.
8G\	.	.	16d/	.	16f/	.	16A\	.	.	.	.	.	.	.	.	.	.	.	.
.	.	.	16d/JJ	.	16f/JJ	.	16G\JJ	.	.	.	.	.	.	.	.	.	.	.	.
8G\	.	.	16d/LL	.	16b\LL	.	16A\LL	.	.	.	.	.	.	.	.	.	.	.	.
.	.	.	16e/	.	16cc\	.	16c\	.	.	.	.	.	.	.	.	.	.	.	.
8G\J	.	.	16f/	.	16dd\	.	16B\	.	.	.	.	.	.	.	.	.	.	.	.
.	.	.	16f/JJ	.	16dd\JJ	.	16d\JJ	.	.	.	.	.	.	.	.	.	.	.	.
*Xtremolo	*	*	*	*	*	*	*	*	*	*	*	*	*	*	*	*	*	*	*
=49	=49	=49	=49	=49	=49	=49	=49	=49	=49	=49	=49	=49	=49	=49	=49	=49	=49	=49	=49
4c\	.	.	8e/L	.	8cc\L	.	4c\	-nit	2.ryy	2.ryy	2.ryy	2.ryy	2.ryy	.	.	.	.	.	.
.	.	.	16c/L	.	16dd\L	.	.	.	.	.	.	.	.	.	.	.	.	.	.
.	.	.	16d/JJ	.	16ee\JJ	.	.	.	.	.	.	.	.	.	.	.	.	.	.
4r	.	.	8e/L	.	8ff\L	.	4r	.	.	.	.	.	.	.	.	.	.	.	.
.	.	.	8e/J	.	8ff\J	.	.	.	.	.	.	.	.	.	.	.	.	.	.
4r	.	.	16f/LL	.	16aa\LL	.	4r	.	.	.	.	.	.	.	.	.	.	.	.
.	.	.	16e/	.	16gg\	.	.	.	.	.	.	.	.	.	.	.	.	.	.
.	.	.	16d/	.	16ff\	.	.	.	.	.	.	.	.	.	.	.	.	.	.
.	.	.	16c/JJ	.	16ee\JJ	.	.	.	.	.	.	.	.	.	.	.	.	.	.
=50	=50	=50	=50	=50	=50	=50	=50	=50	=50	=50	=50	=50	=50	=50	=50	=50	=50	=50	=50
*tremolo	*	*	*	*	*	*	*	*	*	*	*	*	*	*	*	*	*	*	*
8F\L	6 3	.	16d/LL	.	16dd/LL	.	4d\	in	2.ryy	2.ryy	2.ryy	2.ryy	2.ryy	.	.	.	.	.	.
.	.	.	16f/	.	16b/	.	.	.	.	.	.	.	.	.	.	.	.	.	.
8F\	.	.	16g/	.	16g/	.	.	.	.	.	.	.	.	.	.	.	.	.	.
.	.	.	16f/JJ	.	16f/JJ	.	.	.	.	.	.	.	.	.	.	.	.	.	.
8F\	.	.	16B/LL	.	16d/LL	.	16c\LL	no-	.	.	.	.	.	.	.	.	.	.	.
.	.	.	16c/	.	16e/	.	16B\	.	.	.	.	.	.	.	.	.	.	.	.
8F\J	.	.	16d/	.	16f/	.	16A\	.	.	.	.	.	.	.	.	.	.	.	.
.	.	.	16d/JJ	.	16f/JJ	.	16G\JJ	.	.	.	.	.	.	.	.	.	.	.	.
*Xtremolo	*	*	*	*	*	*	*	*	*	*	*	*	*	*	*	*	*	*	*
8G\L	7 5	.	16B/LL	.	16d/LL	.	16A\LL	.	.	.	.	.	.	.	.	.	.	.	.
.	.	.	16c/	.	16e/	.	16c\	.	.	.	.	.	.	.	.	.	.	.	.
8G\J	.	.	16d/	.	16f/	.	16B\	-mi-	.	.	.	.	.	.	.	.	.	.	.
.	.	.	16d/JJ	.	16f/JJ	.	16d\JJ	.	.	.	.	.	.	.	.	.	.	.	.
!	!	!	!	!	!	!	!LO:LB:g=original	!	!	!	!	!	!	!	!	!	!	!	!
=51	=51	=51	=51	=51	=51	=51	=51	=51	=51	=51	=51	=51	=51	=51	=51	=51	=51	=51	=51
4C/	.	.	4c/	.	4e/	.	4c\	-ne	2.ryy	2.ryy	2.ryy	2.ryy	2.ryy	4g/	4ee\	16cc\LL	16cc\LL	16cc\LL	16cc\LL
.	.	.	.	.	.	.	.	.	.	.	.	.	.	.	.	16cc\	16ee\	16cc\	16ee\
.	.	.	.	.	.	.	.	.	.	.	.	.	.	.	.	16dd\	16ff\	16dd\	16ff\
.	.	.	.	.	.	.	.	.	.	.	.	.	.	.	.	16ee\JJ	16gg\JJ	16ee\JJ	16gg\JJ
4c\	.	.	4r	.	4r	.	4r	.	.	.	.	.	.	4e/	4cc\	16ff\LL	16aa\LL	16ff\LL	16aa\LL
.	.	.	.	.	.	.	.	.	.	.	.	.	.	.	.	16ee\	16gg\	16ee\	16gg\
.	.	.	.	.	.	.	.	.	.	.	.	.	.	.	.	16ff\	16aa\	16ff\	16aa\
.	.	.	.	.	.	.	.	.	.	.	.	.	.	.	.	16dd\JJ	16bb\JJ	16dd\JJ	16bb\JJ
4r	.	.	4r	.	4r	.	4r	.	.	.	.	.	.	4r	4r	16ee\LL	16ccc\LL	16ee\LL	16ccc\LL
.	.	.	.	.	.	.	.	.	.	.	.	.	.	.	.	16gg\	16bb\	16gg\	16bb\
.	.	.	.	.	.	.	.	.	.	.	.	.	.	.	.	16ff\	16aa\	16ff\	16aa\
.	.	.	.	.	.	.	.	.	.	.	.	.	.	.	.	16ee\JJ	16gg\JJ	16ee\JJ	16gg\JJ
=52	=52	=52	=52	=52	=52	=52	=52	=52	=52	=52	=52	=52	=52	=52	=52	=52	=52	=52	=52
!	!	!	!	!	!	!	!LO:TX:a:t=3.	!	!	!	!	!	!	!	!	!	!	!	!
4G\	7	.	4d/	.	4f/	.	1.r	.	2.ryy	2.ryy	2.ryy	2.ryy	2.ryy	8dd\L	8ff\L	4dd\	4ff\	4dd\	4ff\
.	.	.	.	.	.	.	.	.	.	.	.	.	.	8g\	8dd\	.	.	.	.
4r	.	.	4r	.	4r	.	.	.	.	.	.	.	.	8cc\	8ee\	4r	4r	4r	4r
.	.	.	.	.	.	.	.	.	.	.	.	.	.	8dd\	8ff\	.	.	.	.
4GG/	.	.	4B/	.	4d/	.	.	.	.	.	.	.	.	8ee\	8gg\	4b\	4dd\	4b\	4dd\
.	.	.	.	.	.	.	.	.	.	.	.	.	.	8dd\J	8ff\J	.	.	.	.
!LO:LB:g=original	!	!	!	!	!	!	!	!	!	!	!	!	!	!LO:LB:g=original	!	!	!	!	!
=53	=53	=53	=53	=53	=53	=53	=53	=53	=53	=53	=53	=53	=53	=53	=53	=53	=53	=53	=53
4C/	.	.	4c/	.	4e 4G/	.	.	.	2.ryy	2.ryy	2.ryy	2.ryy	2.ryy	4g/	4ee\	16cc\LL	16ee\LL	16cc\LL	16ee\LL
.	.	.	.	.	.	.	.	.	.	.	.	.	.	.	.	16cc\	16ee\	16cc\	16ee\
.	.	.	.	.	.	.	.	.	.	.	.	.	.	.	.	16dd\	16ff\	16dd\	16ff\
.	.	.	.	.	.	.	.	.	.	.	.	.	.	.	.	16ee\JJ	16gg\JJ	16ee\JJ	16gg\JJ
4c\	.	.	4r	.	4r	.	.	.	.	.	.	.	.	4e/	4cc\	16ff\LL	16aa\LL	16ff\LL	16aa\LL
.	.	.	.	.	.	.	.	.	.	.	.	.	.	.	.	16ee\	16gg\	16ee\	16gg\
.	.	.	.	.	.	.	.	.	.	.	.	.	.	.	.	16ff\	16aa\	16ff\	16aa\
.	.	.	.	.	.	.	.	.	.	.	.	.	.	.	.	16dd\JJ	16bb\JJ	16dd\JJ	16bb\JJ
!	!	!	!LO:TX:b:i:t=Volti Subito	!	!	!	!	!	!	!	!	!	!	!	!	!	!	!	!
4r	.	.	4r	.	4r	.	.	.	.	.	.	.	.	4r	4r	16ee\LL	16ccc\LL	16ee\LL	16ccc\LL
.	.	.	.	.	.	.	.	.	.	.	.	.	.	.	.	16gg\	16bb\	16gg\	16bb\
.	.	.	.	.	.	.	.	.	.	.	.	.	.	.	.	16ff\	16aa\	16ff\	16aa\
.	.	.	.	.	.	.	.	.	.	.	.	.	.	.	.	16ee\JJ	16gg\JJ	16ee\JJ	16gg\JJ
!	!	!	!LO:LB:g=original	!	!	!	!	!	!	!	!	!	!	!	!LO:LB:g=original	!	!LO:LB:g=original	!	!
=54	=54	=54	=54	=54	=54	=54	=54	=54	=54	=54	=54	=54	=54	=54	=54	=54	=54	=54	=54
4G\	7	.	4d/	.	4f/	.	2.r	.	2.ryy	2.ryy	2.ryy	2.ryy	2.ryy	8dd\L	8ff\L	4dd\	4ff\	4dd\	4ff\
.	.	.	.	.	.	.	.	.	.	.	.	.	.	8g\	8dd\	.	.	.	.
4r	.	.	4r	.	4r	.	.	.	.	.	.	.	.	8cc\	8ee\	4r	4r	4r	4r
.	.	.	.	.	.	.	.	.	.	.	.	.	.	8dd\	8ff\	.	.	.	.
4GG/	.	.	4B/	.	4d/	.	.	.	.	.	.	.	.	8ee\	8gg\	4b\	4dd\	4b\	4dd\
.	.	.	.	.	.	.	.	.	.	.	.	.	.	8dd\J	8ff\J	.	.	.	.
=55	=55	=55	=55	=55	=55	=55	=55	=55	=55	=55	=55	=55	=55	=55	=55	=55	=55	=55	=55
4C/	.	.	4c/	.	4cc 4e 4G/	.	4r	.	2.ryy	2.ryy	2.ryy	2.ryy	2.ryy	4cc\	4ee\	16cc\LL	16ee\LL	16cc\LL	16ee\LL
.	.	.	.	.	.	.	.	.	.	.	.	.	.	.	.	16dd\	16ff\	16dd\	16ff\
.	.	.	.	.	.	.	.	.	.	.	.	.	.	.	.	16cc\	16ee\	16cc\	16ee\
.	.	.	.	.	.	.	.	.	.	.	.	.	.	.	.	16dd\JJ	16ff\JJ	16dd\JJ	16ff\JJ
8r	.	.	8r	.	8r	.	8r	.	.	.	.	.	.	8r	8r	8cc\	8ee\	8cc\	8ee\
8C/L	.	.	8cc\L	.	8cc\L	.	8c\	qui	.	.	.	.	.	8cc\L	8ee\L	8r	8r	8r	8r
8C/	.	.	8cc\	.	8cc\	.	8c\	ve-	.	.	.	.	.	8cc\	8ee\	4r	4r	4r	4r
8C/J	.	.	8cc\J	.	8cc\J	.	8c\	.	.	.	.	.	.	8cc\J	8ee\J	.	.	.	.
!	!	!	!	!	!	!	!	!	!	!	!	!	!	!	!	!LO:LB:g=original	!	!LO:LB:g=original	!LO:LB:g=original
=56	=56	=56	=56	=56	=56	=56	=56	=56	=56	=56	=56	=56	=56	=56	=56	=56	=56	=56	=56
4AA/	.	.	4a/	.	4a/	.	8c\	-nit	2.ryy	2.ryy	2.ryy	2.ryy	2.ryy	4cc\	4ee\	16cc\LL	16ee\LL	16cc\LL	16ee\LL
.	.	.	.	.	.	.	.	.	.	.	.	.	.	.	.	16dd\	16ff\	16dd\	16ff\
.	.	.	.	.	.	.	8r	.	.	.	.	.	.	.	.	16cc\	16ee\	16cc\	16ee\
.	.	.	.	.	.	.	.	.	.	.	.	.	.	.	.	16dd\JJ	16ff\JJ	16dd\JJ	16ff\JJ
8r	.	.	8r	.	8r	.	8r	.	.	.	.	.	.	8r	8r	8cc\	8ee\	8cc\	8ee\
8AA/L	.	.	8a/L	.	8a/L	.	8c\	qui	.	.	.	.	.	8cc\L	8ee\L	8r	8r	8r	8r
8AA/	.	.	8a/	.	8a/	.	8c\	ve-	.	.	.	.	.	8cc\	8ee\	4r	4r	4r	4r
8AA/J	.	.	8a/J	.	8a/J	.	8c\	-nit	.	.	.	.	.	8cc\J	8ee\J	.	.	.	.
!	!	!	!	!	!LO:LB:g=original	!	!	!	!	!	!	!	!	!	!	!	!	!	!
=57	=57	=57	=57	=57	=57	=57	=57	=57	=57	=57	=57	=57	=57	=57	=57	=57	=57	=57	=57
*	*	*	*	*	*	*	*2\right	*	*	*	*	*	*	*	*	*2\right	*2\right	*2\right	*2\right
!	!	!	!	!	!	!	!	!	!	!	!	!	!	!LO:TX:t=P:problem:brak taktu	!	!	!	!LO:TX:t=P:problem:2\right:global	!
2.GG/	.	.	4g/	.	2g/	.	2c\	in	2.ryy	2.ryy	2.ryy	2.ryy	2.ryy	2.ryy	4ee\	2cc\	2ee\	2cc\	2ee\
.	.	.	4r	.	.	.	.	.	.	.	.	.	.	.	4r	.	.	.	.
.	.	.	4r	.	4r	.	4c\	.	.	.	.	.	.	.	4r	4dd\	4ff\	4dd\	4ff\
=58	=58	=58	=58	=58	=58	=58	=58	=58	=58	=58	=58	=58	=58	=58	=58	=58	=58	=58	=58
!	!	!	!	!	!	!	!	!	!	!	!	!	!	!LO:TX:a:t=1.	!LO:TX:a:t=1.	!	!	!	!
2.AA-X/	-5 3	.	2a-X/	.	2a-X/	.	2c\	no-	2.ryy	2.ryy	2.ryy	2.ryy	2.ryy	2.r	2.r	2ee-\	2ff#X\	2ee-X\	2ff#X\
.	.	.	4a-/	.	4a-/	.	8c\	-mi-	.	.	.	.	.	.	.	4ee-\	4ff#\	4ee-\	4ff#\
.	.	.	.	.	.	.	8c\	-ne	.	.	.	.	.	.	.	.	.	.	.
!	!	!	!	!	!	!	!LO:LB:g=original	!	!	!	!	!	!	!	!	!	!	!	!
=59	=59	=59	=59	=59	=59	=59	=59	=59	=59	=59	=59	=59	=59	=59	=59	=59	=59	=59	=59
!	!	!	!	!	!	!	!	!	!	!	!	!	!	!	!	!LO:SIC:v:s=2ff\	!	!	!
2GG/	6 4	.	2g/	.	2g/	.	2c\	Do-	2.ryy	2.ryy	2.ryy	2.ryy	2.ryy	2G/	2g/	2ee-\	2gg\	2een\	2gg\
4GG/	7 5	.	4f 4G/	.	4f/	.	4B\	-mi-	.	.	.	.	.	4G/	4g/	4dd\	4ffn\	4dd\	4ffn\
=60	=60	=60	=60	=60	=60	=60	=60	=60	=60	=60	=60	=60	=60	=60	=60	=60	=60	=60	=60
4C/	8 3	.	4e 4G/	.	4e 4G/	.	4c\	-ni.	2.ryy	2.ryy	2.ryy	2.ryy	2.ryy	4e/	4cc\	16cc\LL	16ee\LL	16cc\LL	16ee\LL
.	.	.	.	.	.	.	.	.	.	.	.	.	.	.	.	16een\	16gg\	16ee\	16gg\
.	.	.	.	.	.	.	.	.	.	.	.	.	.	.	.	16ff\	16aa\	16ff\	16aa\
.	.	.	.	.	.	.	.	.	.	.	.	.	.	.	.	16dd\JJ	16bb\JJ	16ee\JJ	16bb\JJ
4r	.	.	4r	.	4r	.	4r	.	.	.	.	.	.	4r	4r	16ee\LL	16ccc\LL	16ee\LL	16ccc\LL
.	.	.	.	.	.	.	.	.	.	.	.	.	.	.	.	16ee\	16gg\	16ee\	16gg\
.	.	.	.	.	.	.	.	.	.	.	.	.	.	.	.	16ff\	16aa\	16ff\	16aa\
.	.	.	.	.	.	.	.	.	.	.	.	.	.	.	.	16dd\JJ	16gg\JJ	16dd\JJ	16gg\JJ
!LO:TX:b:i:t=Volti ſubito	!	!	!	!	!LO:TX:a:i:t=Da Capo. Benedictus usque [fermata]	!	!	!	!	!	!	!	!	!	!	!	!	!	!
4r	.	.	4r	.	4r	.	4r	.	.	.	.	.	.	4r	4r	4cc\	4ee\	4cc\	4ee\
!LO:PB:g=original	!	!	!	!	!	!	!	!	!	!	!	!	!	!	!	!	!LO:LB:g=original	!	!
=61	=61	=61	=61	=61	=61	=61	=61	=61	=61	=61	=61	=61	=61	=61	=61	=61	=61	=61	=61
!LO:TX:t=P:problem:mixed beam	!	!	!	!	!	!	!LO:TX:a:t=10.	!	!	!	!	!	!	!LO:TX:a:t=7.	!LO:TX:a:t=7.	!LO:TX:a:t=7.	!LO:TX:a:t=7.	!LO:TX:a:t=7.	!LO:TX:a:t=7.
8C/L	5 3	.	16c/LL	.	16gg\LLyy	.	0.r	.	2.ryy	2.ryy	2.ryy	2.ryy	2.ryy	0.r	0.r	0.r	0.r	0.r	0.r
.	.	.	16e/	.	16ee\yy	.	.	.	.	.	.	.	.	.	.	.	.	.	.
8c\J	.	.	16g/	.	16dd\yy	.	.	.	.	.	.	.	.	.	.	.	.	.	.
.	.	.	16e/JJ	.	16cc\JJyy	.	.	.	.	.	.	.	.	.	.	.	.	.	.
*tremolo	*	*	*	*	*	*	*	*	*	*	*	*	*	*	*	*	*	*	*
8c\L	6 4	.	16c/LL	.	4cc\yy	.	.	.	.	.	.	.	.	.	.	.	.	.	.
.	.	.	16e/	.	.	.	.	.	.	.	.	.	.	.	.	.	.	.	.
8c\	.	.	16g/	.	.	.	.	.	.	.	.	.	.	.	.	.	.	.	.
.	.	.	16e/JJ	.	.	.	.	.	.	.	.	.	.	.	.	.	.	.	.
8c\	.	.	16c/LL	.	16cc\LLyy	.	.	.	.	.	.	.	.	.	.	.	.	.	.
.	.	.	16f/	.	16ccc\yy	.	.	.	.	.	.	.	.	.	.	.	.	.	.
8c\J	.	.	16a/	.	16bb\yy	.	.	.	.	.	.	.	.	.	.	.	.	.	.
.	.	.	16f/JJ	.	16aa\JJyy	.	.	.	.	.	.	.	.	.	.	.	.	.	.
*Xtremolo	*	*	*	*	*	*	*	*	*	*	*	*	*	*	*	*	*	*	*
!	!	!	!LO:LB:g=original	!	!	!	!	!	!	!	!	!	!	!	!	!	!	!	!
=62	=62	=62	=62	=62	=62	=62	=62	=62	=62	=62	=62	=62	=62	=62	=62	=62	=62	=62	=62
!LO:TX:t=P:problem:mixed beam	!	!	!	!	!	!	!	!	!	!	!	!	!	!	!	!	!	!	!
8D/L	.	.	16c/LL	.	16aa\LLyy	.	.	.	2.ryy	2.ryy	2.ryy	2.ryy	2.ryy	.	.	.	.	.	.
.	.	.	16f/	.	16bb\yy	.	.	.	.	.	.	.	.	.	.	.	.	.	.
8c\J	.	.	16a/	.	16ccc\yy	.	.	.	.	.	.	.	.	.	.	.	.	.	.
.	.	.	16f/JJ	.	16aa\JJyy	.	.	.	.	.	.	.	.	.	.	.	.	.	.
*tremolo	*	*	*	*	*	*	*	*	*	*	*	*	*	*	*	*	*	*	*
8c\L	5 3	.	16c/LL	.	4gg\yy	.	.	.	.	.	.	.	.	.	.	.	.	.	.
.	.	.	16e/	.	.	.	.	.	.	.	.	.	.	.	.	.	.	.	.
8c\	.	.	16g/	.	.	.	.	.	.	.	.	.	.	.	.	.	.	.	.
.	.	.	16e/JJ	.	.	.	.	.	.	.	.	.	.	.	.	.	.	.	.
8c\	.	.	16c/LL	.	16gg\LLyy	.	.	.	.	.	.	.	.	.	.	.	.	.	.
.	.	.	16e/	.	16ccc\yy	.	.	.	.	.	.	.	.	.	.	.	.	.	.
8c\J	.	.	16g/	.	16eee\yy	.	.	.	.	.	.	.	.	.	.	.	.	.	.
.	.	.	16e/JJ	.	16ggg\JJyy	.	.	.	.	.	.	.	.	.	.	.	.	.	.
*Xtremolo	*	*	*	*	*	*	*	*	*	*	*	*	*	*	*	*	*	*	*
=63	=63	=63	=63	=63	=63	=63	=63	=63	=63	=63	=63	=63	=63	=63	=63	=63	=63	=63	=63
!LO:TX:t=P:problem:mixed beam	!	!	!	!	!	!	!	!	!	!	!	!	!	!	!	!	!	!	!
8C/L	.	.	16c/LL	.	16ggg\LLyy	.	.	.	2.ryy	2.ryy	2.ryy	2.ryy	2.ryy	.	.	.	.	.	.
.	.	.	16f/	.	16aa\JJyy	.	.	.	.	.	.	.	.	.	.	.	.	.	.
8c\J	6 4	.	16a/	.	4aa\yy	.	.	.	.	.	.	.	.	.	.	.	.	.	.
.	.	.	16f/JJ	.	.	.	.	.	.	.	.	.	.	.	.	.	.	.	.
*tremolo	*	*	*	*	*	*	*	*	*	*	*	*	*	*	*	*	*	*	*
8c\L	.	.	16c/LL	.	.	.	.	.	.	.	.	.	.	.	.	.	.	.	.
.	.	.	16f/	.	.	.	.	.	.	.	.	.	.	.	.	.	.	.	.
8c\	.	.	16a/	.	16bb\LLyy	.	.	.	.	.	.	.	.	.	.	.	.	.	.
.	.	.	16f/JJ	.	16ccc\JJyy	.	.	.	.	.	.	.	.	.	.	.	.	.	.
8c\	.	.	16c/LL	.	16ddd\LLyy	.	.	.	.	.	.	.	.	.	.	.	.	.	.
.	.	.	16f/	.	16eee\yy	.	.	.	.	.	.	.	.	.	.	.	.	.	.
8c\J	.	.	16a/	.	16fff\yy	.	.	.	.	.	.	.	.	.	.	.	.	.	.
.	.	.	16f/JJ	.	16aa\JJyy	.	.	.	.	.	.	.	.	.	.	.	.	.	.
=64	=64	=64	=64	=64	=64	=64	=64	=64	=64	=64	=64	=64	=64	=64	=64	=64	=64	=64	=64
8C/L	.	.	16c/LL	.	16ff#X\LLyy	.	.	.	2.ryy	2.ryy	2.ryy	2.ryy	2.ryy	.	.	.	.	.	.
.	.	.	16e/	.	16gg\yy	.	.	.	.	.	.	.	.	.	.	.	.	.	.
8C/	.	.	16g/	.	16aa\yy	.	.	.	.	.	.	.	.	.	.	.	.	.	.
.	.	.	16e/JJ	.	16gg\JJyy	.	.	.	.	.	.	.	.	.	.	.	.	.	.
8C/	.	.	16c/LL	.	4gg\yy	.	.	.	.	.	.	.	.	.	.	.	.	.	.
.	.	.	16e/	.	.	.	.	.	.	.	.	.	.	.	.	.	.	.	.
8C/J	.	.	16g/	.	.	.	.	.	.	.	.	.	.	.	.	.	.	.	.
.	.	.	16e/JJ	.	.	.	.	.	.	.	.	.	.	.	.	.	.	.	.
*Xtremolo	*	*	*	*	*	*	*	*	*	*	*	*	*	*	*	*	*	*	*
8E\L	.	.	16c/LL	.	16gg\LLyy	.	.	.	.	.	.	.	.	.	.	.	.	.	.
.	.	.	16e/	.	16eee\yy	.	.	.	.	.	.	.	.	.	.	.	.	.	.
8E\J	.	.	16g/	.	16ddd\yy	.	.	.	.	.	.	.	.	.	.	.	.	.	.
.	.	.	16e/JJ	.	16ccc\JJyy	.	.	.	.	.	.	.	.	.	.	.	.	.	.
=65	=65	=65	=65	=65	=65	=65	=65	=65	=65	=65	=65	=65	=65	=65	=65	=65	=65	=65	=65
*tremolo	*	*	*	*	*	*	*	*	*	*	*	*	*	*	*	*	*	*	*
8D/L	6 3	.	16d/LL	.	16ccc\LLyy	.	0.r	.	2.ryy	2.ryy	2.ryy	2.ryy	2.ryy	1.r	1.r	1.r	1.r	1.r	1.r
.	.	.	16f/	.	16bb\yy	.	.	.	.	.	.	.	.	.	.	.	.	.	.
8D/	.	.	16g/	.	16ddd\yy	.	.	.	.	.	.	.	.	.	.	.	.	.	.
.	.	.	16f/JJ	.	16ccc\JJyy	.	.	.	.	.	.	.	.	.	.	.	.	.	.
8D/	.	.	16d/LL	.	4bb\yy	.	.	.	.	.	.	.	.	.	.	.	.	.	.
.	.	.	16f/	.	.	.	.	.	.	.	.	.	.	.	.	.	.	.	.
8D/J	.	.	16g/	.	.	.	.	.	.	.	.	.	.	.	.	.	.	.	.
.	.	.	16f/JJ	.	.	.	.	.	.	.	.	.	.	.	.	.	.	.	.
*Xtremolo	*	*	*	*	*	*	*	*	*	*	*	*	*	*	*	*	*	*	*
8GG/L	7 5	.	16d/LL	.	16gg\LLyy	.	.	.	.	.	.	.	.	.	.	.	.	.	.
.	.	.	16f/	.	16fff\yy	.	.	.	.	.	.	.	.	.	.	.	.	.	.
8GG/J	.	.	16g/	.	16eee\yy	.	.	.	.	.	.	.	.	.	.	.	.	.	.
.	.	.	16f/JJ	.	16ddd\JJyy	.	.	.	.	.	.	.	.	.	.	.	.	.	.
!	!	!	!	!	!LO:LB:g=original	!	!	!	!	!	!	!	!	!	!	!	!	!	!
=66	=66	=66	=66	=66	=66	=66	=66	=66	=66	=66	=66	=66	=66	=66	=66	=66	=66	=66	=66
*tremolo	*	*	*	*	*	*	*	*	*	*	*	*	*	*	*	*	*	*	*
8C/L	.	.	16c/LL	.	16ddd\LLyy	.	.	.	2.ryy	2.ryy	2.ryy	2.ryy	2.ryy	.	.	.	.	.	.
.	.	.	16e/	.	16ccc\yy	.	.	.	.	.	.	.	.	.	.	.	.	.	.
8C/	.	.	16g/	.	16eee\yy	.	.	.	.	.	.	.	.	.	.	.	.	.	.
.	.	.	16e/JJ	.	16ddd\JJyy	.	.	.	.	.	.	.	.	.	.	.	.	.	.
*	*	*	*rep	*	*	*	*	*	*	*	*	*	*	*	*	*	*	*	*
8C/	.	.	16c/LL	.	4ccc\yy	.	.	.	.	.	.	.	.	.	.	.	.	.	.
.	.	.	16e/	.	.	.	.	.	.	.	.	.	.	.	.	.	.	.	.
8C/J	.	.	16g/	.	.	.	.	.	.	.	.	.	.	.	.	.	.	.	.
.	.	.	16e/JJ	.	.	.	.	.	.	.	.	.	.	.	.	.	.	.	.
*Xtremolo	*	*	*Xrep	*	*	*	*	*	*	*	*	*	*	*	*	*	*	*	*
8E\L	.	.	16e/LL	.	16gg\LLyy	.	.	.	.	.	.	.	.	.	.	.	.	.	.
.	.	.	16g/	.	16ggg\yy	.	.	.	.	.	.	.	.	.	.	.	.	.	.
8E\J	.	.	16cc/	.	16fff\yy	.	.	.	.	.	.	.	.	.	.	.	.	.	.
.	.	.	16g/JJ	.	16eee\JJyy	.	.	.	.	.	.	.	.	.	.	.	.	.	.
!	!	!	!LO:LB:g=original	!	!	!	!	!	!	!	!	!	!	!	!	!	!	!	!
=67	=67	=67	=67	=67	=67	=67	=67	=67	=67	=67	=67	=67	=67	=67	=67	=67	=67	=67	=67
!LO:TX:t=P:problem:mixed beam	!	!	!	!	!	!	!	!	!	!	!	!	!	!	!	!	!	!	!
8F\L	.	.	16f/LL	.	16eee\LLyy	.	.	.	2.ryy	2.ryy	2.ryy	2.ryy	2.ryy	2.r	2.r	2.r	2.r	2.r	2.r
.	.	.	16a/	.	16fff\yy	.	.	.	.	.	.	.	.	.	.	.	.	.	.
8F\	.	.	16dd/	.	16aa\yy	.	.	.	.	.	.	.	.	.	.	.	.	.	.
.	.	.	16a/JJ	.	16ddd\JJyy	.	.	.	.	.	.	.	.	.	.	.	.	.	.
8G\	.	.	16g/LL	.	8.ccc\Lyy	.	.	.	.	.	.	.	.	.	.	.	.	.	.
.	.	.	16cc/	.	.	.	.	.	.	.	.	.	.	.	.	.	.	.	.
8G\	.	.	16ee/	.	.	.	.	.	.	.	.	.	.	.	.	.	.	.	.
.	.	.	16cc/JJ	.	16ddd\Jkyy	.	.	.	.	.	.	.	.	.	.	.	.	.	.
8GG/	.	.	16g/LL	.	4dddTT\yy	.	.	.	.	.	.	.	.	.	.	.	.	.	.
.	.	.	16b/	.	.	.	.	.	.	.	.	.	.	.	.	.	.	.	.
8GG/J	.	.	16dd/	.	.	.	.	.	.	.	.	.	.	.	.	.	.	.	.
.	.	.	16b/JJ	.	.	.	.	.	.	.	.	.	.	.	.	.	.	.	.
!LO:LB:g=original	!	!	!	!	!	!	!	!	!	!	!	!	!	!	!	!	!	!	!
=68	=68	=68	=68	=68	=68	=68	=68	=68	=68	=68	=68	=68	=68	=68	=68	=68	=68	=68	=68
4C/	.	.	4cc\	.	4ccc\yy	.	.	.	2.ryy	2.ryy	2.ryy	2.ryy	2.ryy	4e/	4cc\	8r	8r	8r	8r
.	.	.	.	.	.	.	.	.	.	.	.	.	.	.	.	16cc\LL	16ee\LL	16cc\LL	16ee\LL
.	.	.	.	.	.	.	.	.	.	.	.	.	.	.	.	16dd\JJ	16ff\JJ	16dd\JJ	16ff\JJ
4r	.	.	4r	.	4ryy	.	.	.	.	.	.	.	.	4r	4r	8ee\L	8gg\L	8ee\L	8gg\L
.	.	.	.	.	.	.	.	.	.	.	.	.	.	.	.	8aa\	8ccc\	8aa\	8ccc\
4GG/	.	.	4r	.	4ryy	.	.	.	.	.	.	.	.	4g/	4dd\	8gg\	8bb\	8gg\	8bb\
.	.	.	.	.	.	.	.	.	.	.	.	.	.	.	.	8ff\J	8aa\J	8ff\J	8aa\J
!	!	!	!	!	!	!	!	!	!	!	!	!	!	!	!	!LO:LB:g=original	!	!LO:LB:g=original	!LO:LB:g=original
=69	=69	=69	=69	=69	=69	=69	=69	=69	=69	=69	=69	=69	=69	=69	=69	=69	=69	=69	=69
4C/	.	.	4e/	.	4cc\yy	.	1.r	.	2.ryy	2.ryy	2.ryy	2.ryy	2.ryy	4cc\	4ee\	8ee\L	8gg\L	8ee\L	8gg\L
.	.	.	.	.	.	.	.	.	.	.	.	.	.	.	.	16cc\L	16ee\L	16cc\L	16ee\L
.	.	.	.	.	.	.	.	.	.	.	.	.	.	.	.	16dd\JJ	16ff\JJ	16dd\JJ	16ff\JJ
4r	.	.	4r	.	4ryy	.	.	.	.	.	.	.	.	4r	4r	8ee\L	8gg\L	8ee\L	8gg\L
.	.	.	.	.	.	.	.	.	.	.	.	.	.	.	.	8ff\	8aa\	8ff\	8aa\
4GG/	.	.	4g/	.	4byy 4d/yy	.	.	.	.	.	.	.	.	4g/	4dd\	8ee\	8gg\	8ee\	8gg\
.	.	.	.	.	.	.	.	.	.	.	.	.	.	.	.	8dd\J	8ff\J	8dd\J	8ff\J
!	!	!	!	!	!	!	!	!	!	!	!	!	!	!LO:LB:g=original	!LO:LB:g=original	!	!	!	!
=70	=70	=70	=70	=70	=70	=70	=70	=70	=70	=70	=70	=70	=70	=70	=70	=70	=70	=70	=70
4GG/	.	.	4f/	.	4byy 4d/yy	.	.	.	2.ryy	2.ryy	2.ryy	2.ryy	2.ryy	4dd\	4dd\	4dd\	4ff\	4dd\	4ff\
!LO:TX:t=P:problem:mixed beam	!	!	!	!	!	!	!	!	!	!	!	!	!	!	!	!	!	!	!
16C/LL	.	.	4e/	.	4ccyy 4e/yy	.	.	.	.	.	.	.	.	16cc\LL	16cc\LL	8cc\L	8ee\L	8cc\L	8ee\L
16c\	.	.	.	.	.	.	.	.	.	.	.	.	.	16cc\	16cc\	.	.	.	.
16G\	.	.	.	.	.	.	.	.	.	.	.	.	.	16g\	16g\	8ee\	8gg\	8ee\	8gg\
16E\JJ	.	.	.	.	.	.	.	.	.	.	.	.	.	16e\JJ	16e\JJ	.	.	.	.
4C/	.	.	4r	.	4ryy	.	.	.	.	.	.	.	.	4c/	4c/	8cc\J	8ee\J	8cc\J	8ee\J
!LO:TX:b:i:t=Osanna ut Pleni.	!	!	!	!	!	!	!LO:TX:b:i:t=Oſanna ut Pleni.	!	!LO:TX:b:i:t=Osanna ut Pleni.	!LO:TX:b:i:t=Osſanna ut Pleni.	!LO:TX:b:i:t=Oſanna ut Pleni.	!LO:TX:b:i:t=Oſanna ut Pleni.	!LO:TX:b:i:t=Volti Agnus.	!	!LO:TX:b:i:t=Oſanna ut Pleni.	!	!LO:TX:b:i:t=Oſanna ut Pleni.	!LO:TX:b:i:t=Osanna ut Pleni.	!LO:TX:b:i:t=Oſanna ut Pleni.
.	.	.	.	.	.	.	.	.	.	.	.	.	.	.	.	8r	8r	8r	8r
==	==	==	==	==	==	==	==	==	==	==	==	==	==	==	==	==	==	==	==
*-	*-	*-	*-	*-	*-	*-	*-	*-	*-	*-	*-	*-	*-	*-	*-	*-	*-	*-	*-
!!!system-decoration: [(g1)][(g2)]<s9>[(g3)][(g4)]s15
!!!RDF**kern: | = vertical stroke
!!!ENC: Krzysztof Stępień
!!!END: 2020-10-06
!!!AIN: 1 alto 1 bass 2 clars 1 clrno 2 cor 2 oboe 1 organ 1 soprn 1 timpa 1 tromp 2 violn
!!!ENC: Marta Lawrence
!!!END: 2022-02-03
